; generated by PrusaSlicer 2.0.0+ on 2019-06-09 at 09:29:28

; 

; external perimeters extrusion width = 0.45mm
; perimeters extrusion width = 0.45mm
; infill extrusion width = 0.45mm
; solid infill extrusion width = 0.45mm
; top infill extrusion width = 0.40mm
; first layer extrusion width = 0.42mm

M73 P0 R480
M73 Q0 S514
M201 X1000 Y1000 Z1000 E5000 ; sets maximum accelerations, mm/sec^2
M203 X200 Y200 Z12 E120 ; sets maximum feedrates, mm/sec
M204 P1250 R1250 T1250 ; sets acceleration (P, T) and retract acceleration (R), mm/sec^2
M205 X8.00 Y8.00 Z0.40 E1.50 ; sets the jerk limits, mm/sec
M205 S0 T0 ; sets the minimum extruding and travel feed rate, mm/sec
M107
M115 U3.7.1 ; tell printer latest fw version
G90 ; use absolute coordinates
M83 ; extruder relative mode
M104 S215 ; set extruder temp
M140 S60 ; set bed temp
M190 S60 ; wait for bed temp
M109 S215 ; wait for extruder temp
G28 W ; home all without mesh bed level
G80 ; mesh bed leveling
G1 Y-3.0 F1000.0 ; go outside print area
G92 E0.0
G1 X60.0 E9.0 F1000.0 ; intro line
M73 Q0 S513
M73 P0 R480
G1 X100.0 E12.5 F1000.0 ; intro line
G92 E0.0
M221 S95
M900 K30 ; Filament gcode
G21 ; set units to millimeters
G90 ; use absolute coordinates
M83 ; use relative distances for extrusion
;BEFORE_LAYER_CHANGE
G92 E0.0
;0.2


G1 E-0.80000 F2100.00000
G1 Z0.600 F10800.000
;AFTER_LAYER_CHANGE
;0.2
G1 X26.020 Y18.464
G1 Z0.200
G1 E0.80000 F2100.00000
M204 S1000
G1 F1200
G1 X27.426 Y18.185 E0.04496
G1 X225.245 Y18.196 E6.20245
G1 X227.647 Y18.201 E0.07532
G1 X228.451 Y18.414 E0.02608
G1 X228.949 Y18.744 E0.01873
G1 X229.340 Y19.200 E0.01885
G1 X229.593 Y19.746 E0.01885
G1 X229.688 Y20.339 E0.01885
G1 X229.689 Y192.461 E5.39676
G1 X229.490 Y193.361 E0.02889
G1 X228.939 Y194.099 E0.02889
G1 X228.271 Y194.498 E0.02439
G1 X227.506 Y194.639 E0.02439
G1 X25.331 Y194.639 E6.33905
G1 X24.427 Y194.442 E0.02900
G1 X23.686 Y193.889 E0.02900
G1 X23.287 Y193.221 E0.02439
G1 X23.146 Y192.456 E0.02439
G1 X23.135 Y22.472 E5.32973
G1 X23.216 Y21.834 E0.02016
G1 X23.506 Y20.857 E0.03197
G1 X24.027 Y19.948 E0.03286
G1 X24.782 Y19.172 E0.03394
G1 X25.968 Y18.493 E0.04283
G1 F8640
G1 X27.426 Y18.185 E-0.34424
G1 X29.227 Y18.185 E-0.41576
G1 E-0.04000 F2100.00000
G1 Z0.800 F10800.000
G1 X117.800 Y100.347
G1 Z0.200
G1 E0.80000 F2100.00000
G1 F1200
G1 X117.780 Y99.907 E0.01381
G1 X117.871 Y99.493 E0.01330
G1 X118.094 Y99.039 E0.01585
G1 X118.392 Y98.651 E0.01536
G1 X118.754 Y98.300 E0.01580
G1 X119.202 Y97.955 E0.01773
G1 X119.743 Y97.619 E0.01995
G1 X120.332 Y97.319 E0.02075
G1 X120.978 Y97.047 E0.02198
G1 X121.701 Y96.794 E0.02400
G1 X122.447 Y96.580 E0.02435
G1 X123.232 Y96.396 E0.02528
G1 X124.052 Y96.245 E0.02612
G1 X124.926 Y96.123 E0.02767
G1 X125.821 Y96.037 E0.02820
G1 X126.721 Y95.988 E0.02826
G1 X127.567 Y95.974 E0.02655
G1 X128.462 Y95.995 E0.02805
G1 X129.294 Y96.046 E0.02613
G1 X130.163 Y96.133 E0.02740
G1 X131.007 Y96.254 E0.02674
G1 X131.825 Y96.409 E0.02610
G1 X132.608 Y96.595 E0.02525
G1 X133.306 Y96.796 E0.02275
G1 X133.971 Y97.027 E0.02208
G1 X134.583 Y97.281 E0.02078
G1 X135.167 Y97.570 E0.02044
G1 X135.669 Y97.868 E0.01829
G1 X136.086 Y98.167 E0.01609
G1 X136.464 Y98.500 E0.01579
G1 X136.743 Y98.814 E0.01317
G1 X136.895 Y99.024 E0.00812
G1 X137.112 Y99.443 E0.01481
G1 X137.221 Y99.913 E0.01512
G1 X137.199 Y100.334 E0.01323
G1 X137.130 Y100.597 E0.00852
G1 X137.021 Y100.856 E0.00881
G1 X136.877 Y101.102 E0.00894
G1 X136.684 Y101.362 E0.01014
G1 X136.249 Y101.799 E0.01935
G1 X135.953 Y102.035 E0.01185
G1 X135.333 Y102.438 E0.02319
G1 X134.607 Y102.809 E0.02558
G1 X133.848 Y103.119 E0.02570
G1 X133.057 Y103.380 E0.02610
G1 X132.303 Y103.583 E0.02449
G1 X131.453 Y103.767 E0.02727
G1 X130.603 Y103.908 E0.02700
G1 X129.729 Y104.015 E0.02761
G1 X128.835 Y104.086 E0.02812
G1 X127.927 Y104.122 E0.02851
G1 X127.017 Y104.121 E0.02853
G1 X126.156 Y104.086 E0.02702
G1 X125.244 Y104.012 E0.02870
G1 X124.389 Y103.907 E0.02699
G1 X123.563 Y103.769 E0.02626
G1 X122.770 Y103.600 E0.02543
G1 X122.013 Y103.400 E0.02454
G1 X121.298 Y103.171 E0.02354
G1 X120.636 Y102.915 E0.02226
G1 X120.063 Y102.650 E0.01980
G1 X119.513 Y102.346 E0.01969
G1 X119.051 Y102.038 E0.01742
G1 X118.656 Y101.715 E0.01600
G1 X118.331 Y101.379 E0.01466
G1 X118.082 Y101.038 E0.01324
G1 X117.956 Y100.811 E0.00815
G1 X117.820 Y100.404 E0.01345
G1 X118.177 Y100.284 F10800.000
G1 F1200
G1 X118.159 Y99.939 E0.01081
G1 X118.229 Y99.618 E0.01031
G1 X118.416 Y99.239 E0.01324
G1 X118.674 Y98.902 E0.01332
G1 X119.001 Y98.586 E0.01425
G1 X119.417 Y98.266 E0.01647
G1 X119.928 Y97.948 E0.01885
G1 X120.491 Y97.662 E0.01982
G1 X121.114 Y97.399 E0.02118
G1 X121.815 Y97.154 E0.02329
G1 X122.542 Y96.945 E0.02372
G1 X123.310 Y96.766 E0.02470
G1 X124.112 Y96.617 E0.02559
G1 X124.970 Y96.497 E0.02716
G1 X125.849 Y96.413 E0.02770
G1 X126.734 Y96.365 E0.02779
G1 X127.566 Y96.351 E0.02609
G1 X128.446 Y96.371 E0.02759
G1 X129.263 Y96.422 E0.02567
G1 X130.117 Y96.508 E0.02692
G1 X130.945 Y96.627 E0.02623
G1 X131.746 Y96.778 E0.02557
G1 X132.513 Y96.960 E0.02469
G1 X133.191 Y97.156 E0.02215
G1 X133.837 Y97.380 E0.02142
G1 X134.427 Y97.624 E0.02004
G1 X134.987 Y97.902 E0.01959
G1 X135.462 Y98.184 E0.01733
G1 X135.851 Y98.462 E0.01499
G1 X136.197 Y98.768 E0.01449
G1 X136.449 Y99.050 E0.01184
G1 X136.572 Y99.222 E0.00663
G1 X136.755 Y99.575 E0.01247
G1 X136.842 Y99.946 E0.01197
G1 X136.824 Y100.276 E0.01034
G1 X136.772 Y100.475 E0.00646
G1 X136.683 Y100.687 E0.00721
G1 X136.562 Y100.894 E0.00751
G1 X136.398 Y101.115 E0.00863
G1 X135.997 Y101.518 E0.01782
G1 X135.732 Y101.728 E0.01060
G1 X135.144 Y102.111 E0.02200
G1 X134.449 Y102.466 E0.02446
G1 X133.717 Y102.765 E0.02480
G1 X132.949 Y103.018 E0.02537
G1 X132.214 Y103.216 E0.02386
G1 X131.382 Y103.396 E0.02669
G1 X130.550 Y103.535 E0.02646
G1 X129.691 Y103.640 E0.02710
G1 X128.813 Y103.710 E0.02763
G1 X127.920 Y103.745 E0.02803
G1 X127.025 Y103.744 E0.02806
G1 X126.179 Y103.709 E0.02655
G1 X125.282 Y103.637 E0.02822
G1 X124.443 Y103.534 E0.02649
G1 X123.633 Y103.399 E0.02574
G1 X122.857 Y103.233 E0.02488
G1 X122.119 Y103.038 E0.02394
G1 X121.424 Y102.815 E0.02289
G1 X120.783 Y102.567 E0.02154
G1 X120.233 Y102.314 E0.01900
G1 X119.709 Y102.024 E0.01877
G1 X119.276 Y101.734 E0.01635
G1 X118.912 Y101.437 E0.01475
G1 X118.620 Y101.135 E0.01316
G1 X118.400 Y100.835 E0.01165
G1 X118.303 Y100.658 E0.00633
G1 X118.196 Y100.340 E0.01052
G1 X117.854 Y100.162 F10800.000
G1 F8640
G1 X118.159 Y99.939 E-0.09305
G1 X118.229 Y99.618 E-0.07591
G1 X118.416 Y99.239 E-0.09747
G1 X118.674 Y98.902 E-0.09813
G1 X119.001 Y98.586 E-0.10496
G1 X119.417 Y98.266 E-0.12129
G1 X119.928 Y97.948 E-0.13885
G1 X120.045 Y97.889 E-0.03034
G1 E-0.04000 F2100.00000
G1 Z0.800 F10800.000
G1 X27.189 Y22.428
G1 Z0.200
G1 E0.80000 F2100.00000
G1 F1200
G1 X27.378 Y22.239 E0.00840
G1 X27.562 Y22.200 E0.00589
G1 X33.072 Y22.193 E0.17276
G1 X42.884 Y22.209 E0.30767
G1 X226.913 Y22.200 E5.77009
G1 X226.913 Y191.863 E5.31967
M73 Q0 S512
M73 P0 R479
G1 X27.150 Y191.863 E6.26343
G1 X27.150 Y22.611 E5.30676
G1 X27.176 Y22.487 E0.00399
G1 X26.807 Y22.409 F10800.000
G1 F1200
G1 X26.862 Y22.221 E0.00612
G1 X27.171 Y21.912 E0.01372
G1 X27.522 Y21.823 E0.01135
G1 X227.290 Y21.823 E6.26358
G1 X227.290 Y192.240 E5.34332
G1 X26.773 Y192.240 E6.28708
G1 X26.773 Y22.572 E5.31982
G1 X26.795 Y22.467 E0.00335
G1 X26.992 Y22.345 F10800.000
G1 F8640
G1 X26.862 Y22.221 E-0.05890
G1 X27.171 Y21.912 E-0.10103
G1 X27.522 Y21.823 E-0.08357
G1 X29.759 Y21.823 E-0.51650
G1 E-0.04000 F2100.00000
G1 Z0.800 F10800.000
G1 X28.026 Y191.750
G1 Z0.200
G1 E0.80000 F2100.00000
G1 F1200
G1 X27.433 Y191.156 E0.02631
G1 X27.433 Y190.623 E0.01672
G1 X28.390 Y191.580 E0.04244
G1 X28.923 Y191.580 E0.01672
G1 X27.433 Y190.090 E0.06609
G1 X27.433 Y189.557 E0.01672
G1 X29.456 Y191.580 E0.08973
G1 X29.989 Y191.580 E0.01672
G1 X27.433 Y189.023 E0.11338
G1 X27.433 Y188.490 E0.01672
G1 X30.523 Y191.580 E0.13703
G1 X31.056 Y191.580 E0.01672
G1 X27.433 Y187.957 E0.16068
G1 X27.433 Y187.423 E0.01672
G1 X31.589 Y191.580 E0.18433
G1 X32.123 Y191.580 E0.01672
G1 X27.433 Y186.890 E0.20798
G1 X27.433 Y186.357 E0.01672
G1 X32.656 Y191.580 E0.23163
M73 Q0 S511
G1 X33.189 Y191.580 E0.01672
G1 X27.433 Y185.823 E0.25528
G1 X27.433 Y185.290 E0.01672
G1 X33.723 Y191.580 E0.27893
M73 P0 R478
G1 X34.256 Y191.580 E0.01672
G1 X27.433 Y184.757 E0.30258
G1 X27.433 Y184.223 E0.01672
G1 X34.789 Y191.580 E0.32623
G1 X35.323 Y191.580 E0.01672
G1 X27.433 Y183.690 E0.34988
G1 X27.433 Y183.157 E0.01672
G1 X35.856 Y191.580 E0.37353
G1 X36.389 Y191.580 E0.01672
G1 X27.433 Y182.624 E0.39718
G1 X27.433 Y182.090 E0.01672
G1 X36.922 Y191.580 E0.42083
G1 X37.456 Y191.580 E0.01672
G1 X27.433 Y181.557 E0.44447
G1 X27.433 Y181.024 E0.01672
G1 X37.989 Y191.580 E0.46812
G1 X38.522 Y191.580 E0.01672
G1 X27.433 Y180.490 E0.49177
G1 X27.433 Y179.957 E0.01672
G1 X39.056 Y191.580 E0.51542
G1 X39.589 Y191.580 E0.01672
G1 X27.433 Y179.424 E0.53907
G1 X27.433 Y178.890 E0.01672
G1 X40.122 Y191.580 E0.56272
G1 X40.656 Y191.580 E0.01672
G1 X27.433 Y178.357 E0.58637
G1 X27.433 Y177.824 E0.01672
G1 X41.189 Y191.580 E0.61002
G1 X41.722 Y191.580 E0.01672
G1 X27.433 Y177.290 E0.63367
G1 X27.433 Y176.757 E0.01672
G1 X42.255 Y191.580 E0.65732
G1 X42.789 Y191.580 E0.01672
G1 X27.433 Y176.224 E0.68097
G1 X27.433 Y175.691 E0.01672
G1 X43.322 Y191.580 E0.70462
G1 X43.855 Y191.580 E0.01672
G1 X27.433 Y175.157 E0.72827
G1 X27.433 Y174.624 E0.01672
G1 X44.389 Y191.580 E0.75192
G1 X44.922 Y191.580 E0.01672
G1 X27.433 Y174.091 E0.77557
G1 X27.433 Y173.557 E0.01672
G1 X45.455 Y191.580 E0.79921
G1 X45.989 Y191.580 E0.01672
G1 X27.433 Y173.024 E0.82286
G1 X27.433 Y172.491 E0.01672
G1 X46.522 Y191.580 E0.84651
G1 X47.055 Y191.580 E0.01672
G1 X27.433 Y171.957 E0.87016
G1 X27.433 Y171.424 E0.01672
G1 X47.589 Y191.580 E0.89381
G1 X48.122 Y191.580 E0.01672
G1 X27.433 Y170.891 E0.91746
G1 X27.433 Y170.358 E0.01672
G1 X48.655 Y191.580 E0.94111
G1 X49.188 Y191.580 E0.01672
G1 X27.433 Y169.824 E0.96476
G1 X27.433 Y169.291 E0.01672
G1 X49.722 Y191.580 E0.98841
G1 X50.255 Y191.580 E0.01672
G1 X27.433 Y168.758 E1.01206
G1 X27.433 Y168.224 E0.01672
G1 X50.788 Y191.580 E1.03571
G1 X51.322 Y191.580 E0.01672
G1 X27.433 Y167.691 E1.05936
G1 X27.433 Y167.158 E0.01672
G1 X51.855 Y191.580 E1.08301
G1 X52.388 Y191.580 E0.01672
G1 X27.433 Y166.624 E1.10666
G1 X27.433 Y166.091 E0.01672
G1 X52.922 Y191.580 E1.13030
G1 X53.455 Y191.580 E0.01672
G1 X27.433 Y165.558 E1.15395
G1 X27.433 Y165.024 E0.01672
G1 X53.988 Y191.580 E1.17760
G1 X54.522 Y191.580 E0.01672
G1 X27.433 Y164.491 E1.20125
G1 X27.433 Y163.958 E0.01672
G1 X55.055 Y191.580 E1.22490
G1 X55.588 Y191.580 E0.01672
G1 X27.433 Y163.425 E1.24855
G1 X27.433 Y162.891 E0.01672
G1 X56.121 Y191.580 E1.27220
G1 X56.655 Y191.580 E0.01672
G1 X27.433 Y162.358 E1.29585
G1 X27.433 Y161.825 E0.01672
G1 X57.188 Y191.580 E1.31950
G1 X57.721 Y191.580 E0.01672
G1 X27.433 Y161.291 E1.34315
M73 Q0 S510
M73 P0 R477
G1 X27.433 Y160.758 E0.01672
G1 X58.255 Y191.580 E1.36680
G1 X58.788 Y191.580 E0.01672
G1 X27.433 Y160.225 E1.39045
G1 X27.433 Y159.691 E0.01672
G1 X59.321 Y191.580 E1.41410
G1 X59.855 Y191.580 E0.01672
G1 X27.433 Y159.158 E1.43775
G1 X27.433 Y158.625 E0.01672
G1 X60.388 Y191.580 E1.46140
G1 X60.921 Y191.580 E0.01672
G1 X27.433 Y158.091 E1.48504
G1 X27.433 Y157.558 E0.01672
G1 X61.455 Y191.580 E1.50869
G1 X61.988 Y191.580 E0.01672
G1 X27.433 Y157.025 E1.53234
G1 X27.433 Y156.492 E0.01672
G1 X62.521 Y191.580 E1.55599
G1 X63.054 Y191.580 E0.01672
G1 X27.433 Y155.958 E1.57964
G1 X27.433 Y155.425 E0.01672
G1 X63.588 Y191.580 E1.60329
G1 X64.121 Y191.580 E0.01672
G1 X27.433 Y154.892 E1.62694
G1 X27.433 Y154.358 E0.01672
G1 X64.654 Y191.580 E1.65059
G1 X65.188 Y191.580 E0.01672
G1 X27.433 Y153.825 E1.67424
G1 X27.433 Y153.292 E0.01672
G1 X65.721 Y191.580 E1.69789
G1 X66.254 Y191.580 E0.01672
G1 X27.433 Y152.758 E1.72154
G1 X27.433 Y152.225 E0.01672
G1 X66.788 Y191.580 E1.74519
G1 X67.321 Y191.580 E0.01672
G1 X27.433 Y151.692 E1.76884
G1 X27.433 Y151.158 E0.01672
G1 X67.854 Y191.580 E1.79249
G1 X68.388 Y191.580 E0.01672
G1 X27.433 Y150.625 E1.81614
G1 X27.433 Y150.092 E0.01672
G1 X68.921 Y191.580 E1.83978
G1 X69.454 Y191.580 E0.01672
G1 X27.433 Y149.559 E1.86343
G1 X27.433 Y149.025 E0.01672
G1 X69.987 Y191.580 E1.88708
M73 Q0 S509
M73 P0 R476
G1 X70.521 Y191.580 E0.01672
G1 X27.433 Y148.492 E1.91073
G1 X27.433 Y147.959 E0.01672
G1 X71.054 Y191.580 E1.93438
G1 X71.587 Y191.580 E0.01672
G1 X27.433 Y147.425 E1.95803
G1 X27.433 Y146.892 E0.01672
G1 X72.121 Y191.580 E1.98168
G1 X72.654 Y191.580 E0.01672
G1 X27.433 Y146.359 E2.00533
G1 X27.433 Y145.825 E0.01672
G1 X73.187 Y191.580 E2.02898
G1 X73.721 Y191.580 E0.01672
G1 X27.433 Y145.292 E2.05263
G1 X27.433 Y144.759 E0.01672
G1 X74.254 Y191.580 E2.07628
G1 X74.787 Y191.580 E0.01672
G1 X27.433 Y144.225 E2.09993
G1 X27.433 Y143.692 E0.01672
G1 X75.321 Y191.580 E2.12358
G1 X75.854 Y191.580 E0.01672
G1 X27.433 Y143.159 E2.14723
G1 X27.433 Y142.626 E0.01672
G1 X76.387 Y191.580 E2.17087
G1 X76.920 Y191.580 E0.01672
G1 X27.433 Y142.092 E2.19452
G1 X27.433 Y141.559 E0.01672
G1 X77.454 Y191.580 E2.21817
G1 X77.987 Y191.580 E0.01672
G1 X27.433 Y141.026 E2.24182
G1 X27.433 Y140.492 E0.01672
G1 X78.520 Y191.580 E2.26547
G1 X79.054 Y191.580 E0.01672
G1 X27.433 Y139.959 E2.28912
G1 X27.433 Y139.426 E0.01672
G1 X79.587 Y191.580 E2.31277
M73 Q1 S508
M73 P1 R475
G1 X80.120 Y191.580 E0.01672
G1 X27.433 Y138.892 E2.33642
G1 X27.433 Y138.359 E0.01672
G1 X80.654 Y191.580 E2.36007
G1 X81.187 Y191.580 E0.01672
G1 X27.433 Y137.826 E2.38372
G1 X27.433 Y137.292 E0.01672
G1 X81.720 Y191.580 E2.40737
G1 X82.254 Y191.580 E0.01672
G1 X27.433 Y136.759 E2.43102
G1 X27.433 Y136.226 E0.01672
G1 X82.787 Y191.580 E2.45467
G1 X83.320 Y191.580 E0.01672
G1 X27.433 Y135.693 E2.47832
G1 X27.433 Y135.159 E0.01672
G1 X83.853 Y191.580 E2.50197
G1 X84.387 Y191.580 E0.01672
G1 X27.433 Y134.626 E2.52561
G1 X27.433 Y134.093 E0.01672
G1 X84.920 Y191.580 E2.54926
G1 X85.453 Y191.580 E0.01672
G1 X27.433 Y133.559 E2.57291
G1 X27.433 Y133.026 E0.01672
G1 X85.987 Y191.580 E2.59656
G1 X86.520 Y191.580 E0.01672
G1 X27.433 Y132.493 E2.62021
G1 X27.433 Y131.959 E0.01672
G1 X87.053 Y191.580 E2.64386
G1 X87.587 Y191.580 E0.01672
G1 X27.433 Y131.426 E2.66751
M73 Q1 S507
M73 P1 R474
G1 X27.433 Y130.893 E0.01672
G1 X88.120 Y191.580 E2.69116
G1 X88.653 Y191.580 E0.01672
G1 X27.433 Y130.359 E2.71481
G1 X27.433 Y129.826 E0.01672
G1 X89.187 Y191.580 E2.73846
G1 X89.720 Y191.580 E0.01672
G1 X27.433 Y129.293 E2.76211
G1 X27.433 Y128.760 E0.01672
G1 X90.253 Y191.580 E2.78576
G1 X90.786 Y191.580 E0.01672
G1 X27.433 Y128.226 E2.80941
G1 X27.433 Y127.693 E0.01672
G1 X91.320 Y191.580 E2.83306
G1 X91.853 Y191.580 E0.01672
G1 X27.433 Y127.160 E2.85671
G1 X27.433 Y126.626 E0.01672
G1 X92.386 Y191.580 E2.88035
G1 X92.920 Y191.580 E0.01672
G1 X27.433 Y126.093 E2.90400
G1 X27.433 Y125.560 E0.01672
G1 X93.453 Y191.580 E2.92765
G1 X93.986 Y191.580 E0.01672
G1 X27.433 Y125.026 E2.95130
G1 X27.433 Y124.493 E0.01672
G1 X94.520 Y191.580 E2.97495
G1 X95.053 Y191.580 E0.01672
G1 X27.433 Y123.960 E2.99860
M73 Q1 S506
M73 P1 R473
G1 X27.433 Y123.426 E0.01672
G1 X95.586 Y191.580 E3.02225
G1 X96.120 Y191.580 E0.01672
G1 X27.433 Y122.893 E3.04590
G1 X27.433 Y122.360 E0.01672
G1 X96.653 Y191.580 E3.06955
G1 X97.186 Y191.580 E0.01672
G1 X27.433 Y121.827 E3.09320
G1 X27.433 Y121.293 E0.01672
G1 X97.719 Y191.580 E3.11685
G1 X98.253 Y191.580 E0.01672
G1 X27.433 Y120.760 E3.14050
G1 X27.433 Y120.227 E0.01672
G1 X98.786 Y191.580 E3.16415
G1 X99.319 Y191.580 E0.01672
G1 X27.433 Y119.693 E3.18780
G1 X27.433 Y119.160 E0.01672
G1 X99.853 Y191.580 E3.21144
G1 X100.386 Y191.580 E0.01672
G1 X27.433 Y118.627 E3.23509
G1 X27.433 Y118.093 E0.01672
G1 X100.919 Y191.580 E3.25874
G1 X101.453 Y191.580 E0.01672
G1 X27.433 Y117.560 E3.28239
M73 Q1 S505
M73 P1 R472
G1 X27.433 Y117.027 E0.01672
G1 X101.986 Y191.580 E3.30604
G1 X102.519 Y191.580 E0.01672
G1 X27.433 Y116.494 E3.32969
G1 X27.433 Y115.960 E0.01672
G1 X103.052 Y191.580 E3.35334
G1 X103.586 Y191.580 E0.01672
