; generated by PrusaSlicer 2.0.0+ on 2019-06-09 at 09:37:14

; 

; external perimeters extrusion width = 0.45mm
; perimeters extrusion width = 0.45mm
; infill extrusion width = 0.45mm
; solid infill extrusion width = 0.45mm
; top infill extrusion width = 0.40mm
; first layer extrusion width = 0.42mm

M73 P0 R456
M73 Q0 S495
M201 X1000 Y1000 Z1000 E5000 ; sets maximum accelerations, mm/sec^2
M203 X200 Y200 Z12 E120 ; sets maximum feedrates, mm/sec
M204 P1250 R1250 T1250 ; sets acceleration (P, T) and retract acceleration (R), mm/sec^2
M205 X8.00 Y8.00 Z0.40 E1.50 ; sets the jerk limits, mm/sec
M205 S0 T0 ; sets the minimum extruding and travel feed rate, mm/sec
M107
M115 U3.7.1 ; tell printer latest fw version
G90 ; use absolute coordinates
M83 ; extruder relative mode
M104 S215 ; set extruder temp
M140 S60 ; set bed temp
M190 S60 ; wait for bed temp
M109 S215 ; wait for extruder temp
G28 W ; home all without mesh bed level
G80 ; mesh bed leveling
G1 Y-3.0 F1000.0 ; go outside print area
G92 E0.0
G1 X60.0 E9.0 F1000.0 ; intro line
M73 Q0 S495
M73 P0 R456
G1 X100.0 E12.5 F1000.0 ; intro line
G92 E0.0
M221 S95
M900 K30 ; Filament gcode
G21 ; set units to millimeters
G90 ; use absolute coordinates
M83 ; use relative distances for extrusion
;BEFORE_LAYER_CHANGE
G92 E0.0
;0.2


G1 E-0.80000 F2100.00000
G1 Z0.600 F10800.000
;AFTER_LAYER_CHANGE
;0.2
G1 X23.351 Y10.160
G1 Z0.200
G1 E0.80000 F2100.00000
M204 S1000
G1 F1200
G1 X24.211 Y9.980 E0.02754
G1 X196.389 Y9.980 E5.39853
G1 X197.072 Y10.091 E0.02168
G1 X227.143 Y20.115 E0.99388
G1 X227.652 Y20.384 E0.01805
G1 X228.074 Y20.776 E0.01805
G1 X228.379 Y21.265 E0.01805
G1 X228.545 Y21.816 E0.01805
G1 X228.574 Y201.976 E5.64879
G1 X228.417 Y202.782 E0.02574
G1 X227.974 Y203.473 E0.02574
G1 X227.271 Y203.970 E0.02698
G1 X226.431 Y204.157 E0.02698
G1 X196.379 Y204.155 E0.94226
G1 X24.086 Y194.153 E5.41123
G1 X23.350 Y193.977 E0.02372
G1 X22.716 Y193.558 E0.02383
G1 X22.253 Y192.929 E0.02451
G1 X22.041 Y192.176 E0.02451
G1 X22.022 Y186.313 E0.18385
G1 X22.032 Y12.161 E5.46040
G1 X22.188 Y11.355 E0.02574
G1 X22.631 Y10.664 E0.02574
G1 X23.302 Y10.195 E0.02566
G1 F8640
G1 X24.211 Y9.980 E-0.21565
G1 X26.568 Y9.980 E-0.54435
G1 E-0.04000 F2100.00000
G1 Z0.800 F10800.000
G1 X50.698 Y89.560
G1 Z0.200
G1 E0.80000 F2100.00000
G1 F1200
G1 X52.089 Y89.168 E0.04531
G1 X53.506 Y88.886 E0.04531
G1 X54.941 Y88.716 E0.04531
G1 X56.379 Y88.660 E0.04511
G1 X57.829 Y88.716 E0.04551
G1 X59.271 Y88.887 E0.04552
G1 X60.682 Y89.168 E0.04511
G1 X62.073 Y89.560 E0.04531
G1 X63.429 Y90.060 E0.04531
G1 X64.741 Y90.665 E0.04531
G1 X66.008 Y91.375 E0.04551
G1 X67.204 Y92.174 E0.04511
G1 X68.339 Y93.068 E0.04531
G1 X69.400 Y94.049 E0.04531
G1 X70.386 Y95.115 E0.04552
G1 X71.280 Y96.250 E0.04531
G1 X72.083 Y97.452 E0.04531
G1 X72.786 Y98.707 E0.04511
G1 X73.394 Y100.025 E0.04551
G1 X73.894 Y101.381 E0.04531
G1 X74.286 Y102.772 E0.04531
G1 X74.567 Y104.183 E0.04511
G1 X74.738 Y105.625 E0.04551
G1 X74.794 Y107.069 E0.04531
G1 X74.738 Y108.513 E0.04531
G1 X74.567 Y109.954 E0.04551
G1 X74.286 Y111.365 E0.04511
G1 X73.894 Y112.756 E0.04531
G1 X73.394 Y114.112 E0.04531
G1 X72.786 Y115.430 E0.04551
G1 X72.083 Y116.685 E0.04511
G1 X71.280 Y117.887 E0.04531
G1 X70.386 Y119.022 E0.04531
G1 X69.400 Y120.088 E0.04552
G1 X68.339 Y121.069 E0.04531
G1 X67.204 Y121.963 E0.04531
G1 X66.008 Y122.763 E0.04511
G1 X64.741 Y123.472 E0.04551
G1 X63.429 Y124.077 E0.04531
G1 X62.073 Y124.577 E0.04531
G1 X60.682 Y124.969 E0.04531
G1 X59.271 Y125.250 E0.04511
G1 X57.829 Y125.421 E0.04551
G1 X56.385 Y125.478 E0.04531
G1 X54.941 Y125.421 E0.04531
G1 X53.500 Y125.250 E0.04551
G1 X52.089 Y124.969 E0.04511
G1 X50.698 Y124.577 E0.04531
G1 X49.342 Y124.077 E0.04531
G1 X48.029 Y123.472 E0.04531
G1 X46.763 Y122.763 E0.04551
G1 X45.567 Y121.963 E0.04511
G1 X44.432 Y121.069 E0.04531
G1 X43.371 Y120.088 E0.04531
G1 X42.385 Y119.022 E0.04552
G1 X41.491 Y117.887 E0.04531
G1 X40.688 Y116.685 E0.04531
G1 X39.985 Y115.430 E0.04511
G1 X39.377 Y114.112 E0.04551
G1 X38.877 Y112.756 E0.04531
G1 X38.485 Y111.365 E0.04531
G1 X38.204 Y109.954 E0.04511
G1 X38.033 Y108.513 E0.04551
G1 X37.976 Y107.069 E0.04531
G1 X38.033 Y105.625 E0.04531
G1 X38.204 Y104.183 E0.04551
G1 X38.485 Y102.772 E0.04511
G1 X38.877 Y101.381 E0.04531
G1 X39.377 Y100.025 E0.04531
G1 X39.982 Y98.713 E0.04531
G1 X40.691 Y97.446 E0.04551
G1 X41.491 Y96.250 E0.04511
G1 X42.385 Y95.115 E0.04531
G1 X43.366 Y94.054 E0.04531
G1 X44.432 Y93.068 E0.04551
G1 X45.567 Y92.174 E0.04531
G1 X46.769 Y91.371 E0.04531
G1 X48.024 Y90.668 E0.04511
G1 X49.342 Y90.060 E0.04551
G1 X50.642 Y89.581 E0.04343
G1 X50.772 Y89.935 F10800.000
G1 F1200
G1 X52.177 Y89.535 E0.04580
G1 X53.565 Y89.259 E0.04438
G1 X54.971 Y89.093 E0.04438
G1 X56.379 Y89.037 E0.04418
G1 X57.800 Y89.093 E0.04458
G1 X59.212 Y89.260 E0.04458
G1 X60.594 Y89.535 E0.04418
G1 X61.956 Y89.919 E0.04438
G1 X63.284 Y90.409 E0.04438
G1 X64.570 Y91.001 E0.04438
G1 X65.810 Y91.696 E0.04458
G1 X66.982 Y92.479 E0.04418
G1 X68.094 Y93.355 E0.04438
G1 X69.133 Y94.316 E0.04438
G1 X70.099 Y95.360 E0.04458
G1 X70.975 Y96.472 E0.04438
G1 X71.761 Y97.649 E0.04438
G1 X72.450 Y98.879 E0.04418
G1 X73.045 Y100.170 E0.04458
G1 X73.535 Y101.498 E0.04438
G1 X73.919 Y102.860 E0.04438
G1 X74.194 Y104.242 E0.04418
G1 X74.361 Y105.654 E0.04458
G1 X74.417 Y107.069 E0.04438
G1 X74.361 Y108.483 E0.04438
G1 X74.194 Y109.895 E0.04458
G1 X73.919 Y111.277 E0.04418
G1 X73.535 Y112.640 E0.04438
G1 X73.045 Y113.968 E0.04438
G1 X72.450 Y115.259 E0.04458
G1 X71.761 Y116.488 E0.04418
G1 X70.975 Y117.665 E0.04438
G1 X70.099 Y118.777 E0.04438
G1 X69.133 Y119.821 E0.04458
G1 X68.094 Y120.782 E0.04438
G1 X66.982 Y121.658 E0.04438
G1 X65.810 Y122.441 E0.04418
G1 X64.570 Y123.136 E0.04458
G1 X63.284 Y123.728 E0.04438
G1 X61.956 Y124.218 E0.04438
G1 X60.594 Y124.602 E0.04438
G1 X59.212 Y124.877 E0.04418
G1 X57.800 Y125.045 E0.04458
G1 X56.385 Y125.100 E0.04438
G1 X54.971 Y125.045 E0.04438
G1 X53.559 Y124.877 E0.04458
G1 X52.177 Y124.602 E0.04418
G1 X50.814 Y124.218 E0.04438
G1 X49.486 Y123.728 E0.04438
G1 X48.201 Y123.136 E0.04438
G1 X46.960 Y122.441 E0.04458
G1 X45.789 Y121.658 E0.04418
G1 X44.677 Y120.782 E0.04438
G1 X43.637 Y119.821 E0.04438
G1 X42.672 Y118.777 E0.04458
G1 X41.796 Y117.665 E0.04438
G1 X41.010 Y116.488 E0.04438
G1 X40.321 Y115.259 E0.04418
G1 X39.726 Y113.968 E0.04458
G1 X39.236 Y112.640 E0.04438
G1 X38.852 Y111.277 E0.04438
G1 X38.577 Y109.895 E0.04418
G1 X38.409 Y108.483 E0.04458
G1 X38.354 Y107.069 E0.04438
G1 X38.409 Y105.654 E0.04438
G1 X38.577 Y104.242 E0.04458
G1 X38.852 Y102.860 E0.04418
G1 X39.236 Y101.498 E0.04438
G1 X39.726 Y100.170 E0.04438
G1 X40.318 Y98.884 E0.04438
G1 X41.013 Y97.644 E0.04458
G1 X41.796 Y96.472 E0.04418
G1 X42.672 Y95.360 E0.04438
G1 X43.633 Y94.321 E0.04438
G1 X44.677 Y93.355 E0.04458
G1 X45.789 Y92.479 E0.04438
G1 X46.966 Y91.693 E0.04438
G1 X48.195 Y91.004 E0.04418
G1 X49.486 Y90.409 E0.04458
G1 X50.716 Y89.956 E0.04108
G1 X50.855 Y89.543 F10800.000
G1 F8640
G1 X52.177 Y89.535 E-0.35107
G1 X53.565 Y89.259 E-0.32685
G1 X53.918 Y89.217 E-0.08208
G1 E-0.04000 F2100.00000
G1 Z0.800 F10800.000
G1 X195.798 Y22.756
G1 Z0.200
G1 E0.80000 F2100.00000
G1 F1200
G1 X225.798 Y22.756 E0.94063
G1 X225.798 Y201.382 E5.60069
M73 Q0 S494
M73 P0 R455
G1 X197.072 Y201.382 E0.90068
G1 X197.072 Y191.382 E0.31354
G1 X26.033 Y191.382 E5.36282
G1 X25.990 Y178.651 E0.39916
G1 X25.990 Y25.486 E4.80237
G1 X26.033 Y12.756 E0.39916
G1 X195.798 Y12.756 E5.32287
G1 X195.798 Y22.696 E0.31166
G1 X196.175 Y22.379 F10800.000
G1 F1200
G1 X226.175 Y22.379 E0.94063
G1 X226.175 Y201.759 E5.62433
G1 X196.695 Y201.759 E0.92432
G1 X196.695 Y191.759 E0.31354
G1 X25.657 Y191.759 E5.36278
G1 X25.612 Y178.652 E0.41097
G1 X25.612 Y25.486 E4.80241
G1 X25.657 Y12.379 E0.41097
G1 X196.175 Y12.379 E5.34647
M73 Q0 S493
M73 P0 R454
G1 X196.175 Y22.319 E0.31166
G1 X196.369 Y22.729 F10800.000
G1 X195.685 Y22.432
G1 F1200
G1 X186.291 Y13.039 E0.41660
G1 X186.825 Y13.039 E0.01673
G1 X195.515 Y21.729 E0.38542
G1 X195.515 Y21.196 E0.01673
G1 X187.358 Y13.039 E0.36177
G1 X187.891 Y13.039 E0.01673
G1 X195.515 Y20.663 E0.33812
G1 X195.515 Y20.129 E0.01673
G1 X188.425 Y13.039 E0.31446
G1 X188.958 Y13.039 E0.01673
G1 X195.515 Y19.596 E0.29081
G1 X195.515 Y19.063 E0.01673
G1 X189.491 Y13.039 E0.26716
G1 X190.025 Y13.039 E0.01673
G1 X195.515 Y18.529 E0.24350
G1 X195.515 Y17.996 E0.01673
G1 X190.558 Y13.039 E0.21985
G1 X191.092 Y13.039 E0.01673
G1 X195.515 Y17.462 E0.19620
G1 X195.515 Y16.929 E0.01673
G1 X191.625 Y13.039 E0.17254
G1 X192.158 Y13.039 E0.01673
G1 X195.515 Y16.396 E0.14889
G1 X195.515 Y15.862 E0.01673
G1 X192.692 Y13.039 E0.12523
G1 X193.225 Y13.039 E0.01673
G1 X195.515 Y15.329 E0.10158
G1 X195.515 Y14.796 E0.01673
G1 X193.758 Y13.039 E0.07793
G1 X194.292 Y13.039 E0.01673
G1 X195.515 Y14.262 E0.05427
G1 X195.515 Y13.729 E0.01673
G1 X194.825 Y13.039 E0.03062
G1 X195.358 Y13.039 E0.01673
G1 X195.685 Y13.365 E0.01449
G1 F8640
G1 X195.358 Y13.039 E-0.10671
G1 X194.825 Y13.039 E-0.12315
G1 X195.515 Y13.729 E-0.22547
G1 X195.515 Y14.262 E-0.12315
G1 X194.960 Y13.706 E-0.18151
G1 E-0.04000 F2100.00000
G1 Z0.800 F10800.000
G1 X196.122 Y22.869
G1 Z0.200
G1 E0.80000 F2100.00000
G1 F1200
G1 X225.515 Y52.263 E1.30357
G1 X225.515 Y51.729 E0.01673
G1 X196.825 Y23.039 E1.27239
G1 X197.358 Y23.039 E0.01673
G1 X225.515 Y51.196 E1.24874
G1 X225.515 Y50.663 E0.01673
G1 X197.891 Y23.039 E1.22509
G1 X198.425 Y23.039 E0.01673
G1 X225.515 Y50.129 E1.20143
G1 X225.515 Y49.596 E0.01673
G1 X198.958 Y23.039 E1.17778
G1 X199.491 Y23.039 E0.01673
G1 X225.515 Y49.063 E1.15413
G1 X225.515 Y48.529 E0.01673
G1 X200.025 Y23.039 E1.13047
G1 X200.558 Y23.039 E0.01673
G1 X225.515 Y47.996 E1.10682
G1 X225.515 Y47.462 E0.01673
G1 X201.092 Y23.039 E1.08317
G1 X201.625 Y23.039 E0.01673
G1 X225.515 Y46.929 E1.05951
G1 X225.515 Y46.396 E0.01673
G1 X202.158 Y23.039 E1.03586
G1 X202.692 Y23.039 E0.01673
G1 X225.515 Y45.862 E1.01221
G1 X225.515 Y45.329 E0.01673
G1 X203.225 Y23.039 E0.98855
G1 X203.758 Y23.039 E0.01673
G1 X225.515 Y44.796 E0.96490
G1 X225.515 Y44.262 E0.01673
G1 X204.292 Y23.039 E0.94125
G1 X204.825 Y23.039 E0.01673
G1 X225.515 Y43.729 E0.91759
G1 X225.515 Y43.196 E0.01673
G1 X205.358 Y23.039 E0.89394
G1 X205.892 Y23.039 E0.01673
G1 X225.515 Y42.662 E0.87028
G1 X225.515 Y42.129 E0.01673
G1 X206.425 Y23.039 E0.84663
G1 X206.958 Y23.039 E0.01673
G1 X225.515 Y41.596 E0.82298
G1 X225.515 Y41.062 E0.01673
G1 X207.492 Y23.039 E0.79932
G1 X208.025 Y23.039 E0.01673
G1 X225.515 Y40.529 E0.77567
G1 X225.515 Y39.996 E0.01673
G1 X208.558 Y23.039 E0.75202
G1 X209.092 Y23.039 E0.01673
G1 X225.515 Y39.462 E0.72836
G1 X225.515 Y38.929 E0.01673
G1 X209.625 Y23.039 E0.70471
G1 X210.159 Y23.039 E0.01673
G1 X225.515 Y38.395 E0.68106
G1 X225.515 Y37.862 E0.01673
G1 X210.692 Y23.039 E0.65740
G1 X211.225 Y23.039 E0.01673
G1 X225.515 Y37.329 E0.63375
G1 X225.515 Y36.795 E0.01673
G1 X211.759 Y23.039 E0.61010
G1 X212.292 Y23.039 E0.01673
G1 X225.515 Y36.262 E0.58644
G1 X225.515 Y35.729 E0.01673
G1 X212.825 Y23.039 E0.56279
G1 X213.359 Y23.039 E0.01673
G1 X225.515 Y35.195 E0.53914
G1 X225.515 Y34.662 E0.01673
G1 X213.892 Y23.039 E0.51548
G1 X214.425 Y23.039 E0.01673
G1 X225.515 Y34.129 E0.49183
G1 X225.515 Y33.595 E0.01673
G1 X214.959 Y23.039 E0.46818
G1 X215.492 Y23.039 E0.01673
G1 X225.515 Y33.062 E0.44452
M73 Q0 S492
M73 P0 R453
G1 X225.515 Y32.529 E0.01673
G1 X216.025 Y23.039 E0.42087
G1 X216.559 Y23.039 E0.01673
G1 X225.515 Y31.995 E0.39722
G1 X225.515 Y31.462 E0.01673
G1 X217.092 Y23.039 E0.37356
G1 X217.625 Y23.039 E0.01673
G1 X225.515 Y30.929 E0.34991
G1 X225.515 Y30.395 E0.01673
G1 X218.159 Y23.039 E0.32626
G1 X218.692 Y23.039 E0.01673
G1 X225.515 Y29.862 E0.30260
G1 X225.515 Y29.328 E0.01673
G1 X219.226 Y23.039 E0.27895
G1 X219.759 Y23.039 E0.01673
G1 X225.515 Y28.795 E0.25530
G1 X225.515 Y28.262 E0.01673
G1 X220.292 Y23.039 E0.23164
G1 X220.826 Y23.039 E0.01673
G1 X225.515 Y27.728 E0.20799
G1 X225.515 Y27.195 E0.01673
G1 X221.359 Y23.039 E0.18433
G1 X221.892 Y23.039 E0.01673
G1 X225.515 Y26.662 E0.16068
G1 X225.515 Y26.128 E0.01673
G1 X222.426 Y23.039 E0.13703
G1 X222.959 Y23.039 E0.01673
G1 X225.515 Y25.595 E0.11337
G1 X225.515 Y25.062 E0.01673
G1 X223.492 Y23.039 E0.08972
G1 X224.026 Y23.039 E0.01673
G1 X225.515 Y24.528 E0.06607
G1 X225.515 Y23.995 E0.01673
G1 X224.559 Y23.039 E0.04241
G1 X225.092 Y23.039 E0.01673
G1 X225.685 Y23.631 E0.02629
G1 F8640
G1 X225.092 Y23.039 E-0.19355
G1 X224.559 Y23.039 E-0.12315
G1 X225.515 Y23.995 E-0.31230
G1 X225.515 Y24.528 E-0.12315
G1 X225.491 Y24.504 E-0.00785
G1 E-0.04000 F2100.00000
G1 Z0.800 F10800.000
G1 X225.685 Y52.966
G1 Z0.200
G1 E0.80000 F2100.00000
G1 F1200
G1 X185.758 Y13.039 E1.77071
G1 X185.225 Y13.039 E0.01673
G1 X225.515 Y53.329 E1.78684
G1 X225.515 Y53.863 E0.01673
G1 X184.691 Y13.039 E1.81049
G1 X184.158 Y13.039 E0.01673
G1 X225.515 Y54.396 E1.83415
G1 X225.515 Y54.929 E0.01673
G1 X183.625 Y13.039 E1.85780
G1 X183.091 Y13.039 E0.01673
G1 X225.515 Y55.463 E1.88145
G1 X225.515 Y55.996 E0.01673
G1 X182.558 Y13.039 E1.90511
G1 X182.025 Y13.039 E0.01673
G1 X225.515 Y56.529 E1.92876
G1 X225.515 Y57.063 E0.01673
G1 X181.491 Y13.039 E1.95241
G1 X180.958 Y13.039 E0.01673
G1 X225.515 Y57.596 E1.97607
G1 X225.515 Y58.130 E0.01673
G1 X180.424 Y13.039 E1.99972
G1 X179.891 Y13.039 E0.01673
G1 X225.515 Y58.663 E2.02337
G1 X225.515 Y59.196 E0.01673
G1 X179.358 Y13.039 E2.04703
G1 X178.824 Y13.039 E0.01673
G1 X225.515 Y59.730 E2.07068
G1 X225.515 Y60.263 E0.01673
G1 X178.291 Y13.039 E2.09433
G1 X177.758 Y13.039 E0.01673
G1 X225.515 Y60.796 E2.11799
G1 X225.515 Y61.330 E0.01673
G1 X177.224 Y13.039 E2.14164
M73 Q0 S491
M73 P0 R452
G1 X176.691 Y13.039 E0.01673
G1 X225.515 Y61.863 E2.16529
G1 X225.515 Y62.396 E0.01673
G1 X176.158 Y13.039 E2.18895
G1 X175.624 Y13.039 E0.01673
G1 X225.515 Y62.930 E2.21260
G1 X225.515 Y63.463 E0.01673
G1 X175.091 Y13.039 E2.23626
G1 X174.558 Y13.039 E0.01673
G1 X225.515 Y63.996 E2.25991
G1 X225.515 Y64.530 E0.01673
G1 X174.024 Y13.039 E2.28356
G1 X173.491 Y13.039 E0.01673
G1 X225.515 Y65.063 E2.30722
G1 X225.515 Y65.596 E0.01673
G1 X172.957 Y13.039 E2.33087
G1 X172.424 Y13.039 E0.01673
G1 X225.515 Y66.130 E2.35452
G1 X225.515 Y66.663 E0.01673
G1 X171.891 Y13.039 E2.37818
G1 X171.357 Y13.039 E0.01673
G1 X225.515 Y67.197 E2.40183
G1 X225.515 Y67.730 E0.01673
G1 X170.824 Y13.039 E2.42548
G1 X170.291 Y13.039 E0.01673
G1 X225.515 Y68.263 E2.44914
G1 X225.515 Y68.797 E0.01673
G1 X169.757 Y13.039 E2.47279
G1 X169.224 Y13.039 E0.01673
G1 X225.515 Y69.330 E2.49644
G1 X225.515 Y69.863 E0.01673
G1 X168.691 Y13.039 E2.52010
M73 Q1 S490
M73 P1 R451
G1 X168.157 Y13.039 E0.01673
G1 X225.515 Y70.397 E2.54375
G1 X225.515 Y70.930 E0.01673
G1 X167.624 Y13.039 E2.56740
G1 X167.091 Y13.039 E0.01673
G1 X225.515 Y71.463 E2.59106
G1 X225.515 Y71.997 E0.01673
G1 X166.557 Y13.039 E2.61471
G1 X166.024 Y13.039 E0.01673
G1 X225.515 Y72.530 E2.63836
G1 X225.515 Y73.063 E0.01673
G1 X165.491 Y13.039 E2.66202
G1 X164.957 Y13.039 E0.01673
G1 X225.515 Y73.597 E2.68567
G1 X225.515 Y74.130 E0.01673
G1 X164.424 Y13.039 E2.70932
G1 X163.890 Y13.039 E0.01673
G1 X225.515 Y74.664 E2.73298
G1 X225.515 Y75.197 E0.01673
G1 X163.357 Y13.039 E2.75663
G1 X162.824 Y13.039 E0.01673
G1 X225.515 Y75.730 E2.78028
G1 X225.515 Y76.264 E0.01673
G1 X162.290 Y13.039 E2.80394
G1 X161.757 Y13.039 E0.01673
G1 X225.515 Y76.797 E2.82759
G1 X225.515 Y77.330 E0.01673
G1 X161.224 Y13.039 E2.85124
M73 Q1 S489
M73 P1 R450
G1 X160.690 Y13.039 E0.01673
G1 X225.515 Y77.864 E2.87490
G1 X225.515 Y78.397 E0.01673
G1 X160.157 Y13.039 E2.89855
G1 X159.624 Y13.039 E0.01673
G1 X225.515 Y78.930 E2.92221
G1 X225.515 Y79.464 E0.01673
G1 X159.090 Y13.039 E2.94586
G1 X158.557 Y13.039 E0.01673
G1 X225.515 Y79.997 E2.96951
G1 X225.515 Y80.530 E0.01673
G1 X158.024 Y13.039 E2.99317
G1 X157.490 Y13.039 E0.01673
G1 X225.515 Y81.064 E3.01682
G1 X225.515 Y81.597 E0.01673
G1 X156.957 Y13.039 E3.04047
G1 X156.424 Y13.039 E0.01673
G1 X225.515 Y82.130 E3.06413
G1 X225.515 Y82.664 E0.01673
G1 X155.890 Y13.039 E3.08778
