; generated by PrusaSlicer 2.0.0+ on 2019-06-11 at 06:52:58

; 

; external perimeters extrusion width = 0.45mm
; perimeters extrusion width = 0.45mm
; infill extrusion width = 0.45mm
; solid infill extrusion width = 0.45mm
; top infill extrusion width = 0.40mm
; first layer extrusion width = 0.42mm

M73 P0 R526
M73 Q0 S581
M201 X1000 Y1000 Z1000 E5000 ; sets maximum accelerations, mm/sec^2
M203 X200 Y200 Z12 E120 ; sets maximum feedrates, mm/sec
M204 P1250 R1250 T1250 ; sets acceleration (P, T) and retract acceleration (R), mm/sec^2
M205 X8.00 Y8.00 Z0.40 E1.50 ; sets the jerk limits, mm/sec
M205 S0 T0 ; sets the minimum extruding and travel feed rate, mm/sec
M107
M115 U3.7.1 ; tell printer latest fw version
G90 ; use absolute coordinates
M83 ; extruder relative mode
M104 S215 ; set extruder temp
M140 S60 ; set bed temp
M190 S60 ; wait for bed temp
M109 S215 ; wait for extruder temp
G28 W ; home all without mesh bed level
G80 ; mesh bed leveling
G1 Y-3.0 F1000.0 ; go outside print area
G92 E0.0
G1 X60.0 E9.0 F1000.0 ; intro line
M73 Q0 S581
M73 P0 R526
G1 X100.0 E12.5 F1000.0 ; intro line
G92 E0.0
M221 S95
M900 K30 ; Filament gcode
G21 ; set units to millimeters
G90 ; use absolute coordinates
M83 ; use relative distances for extrusion
;BEFORE_LAYER_CHANGE
G92 E0.0
;0.2


G1 E-0.80000 F2100.00000
G1 Z0.600 F10800.000
;AFTER_LAYER_CHANGE
;0.2
G1 X28.336 Y16.609
G1 Z0.200
G1 E0.80000 F2100.00000
M204 S1000
G1 F1200
G1 X28.863 Y15.880 E0.02822
G1 X29.543 Y15.460 E0.02507
G1 X30.329 Y15.311 E0.02507
G1 X222.504 Y15.311 E6.02550
G1 X223.334 Y15.476 E0.02653
G1 X224.042 Y15.947 E0.02664
G1 X224.517 Y16.651 E0.02664
G1 X224.688 Y17.483 E0.02664
G1 X224.689 Y189.676 E5.39899
G1 X224.499 Y190.556 E0.02822
G1 X223.972 Y191.285 E0.02822
G1 X223.292 Y191.706 E0.02507
G1 X222.506 Y191.854 E0.02507
G1 X32.492 Y191.854 E5.95774
G1 X31.557 Y191.752 E0.02950
G1 X30.602 Y191.400 E0.03191
G1 X30.185 Y191.160 E0.01510
G1 X29.358 Y190.491 E0.03334
G1 X28.579 Y189.348 E0.04338
G1 X28.246 Y188.433 E0.03054
G1 X28.146 Y187.507 E0.02919
G1 X28.146 Y17.489 E5.33081
G1 X28.323 Y16.668 E0.02634
G1 F8640
G1 X28.863 Y15.880 E-0.22055
G1 X29.543 Y15.460 E-0.18462
G1 X30.329 Y15.311 E-0.18462
G1 X31.066 Y15.311 E-0.17021
G1 E-0.04000 F2100.00000
G1 Z0.800 F10800.000
G1 X32.147 Y18.087
G1 Z0.200
G1 E0.80000 F2100.00000
G1 F1200
G1 X221.913 Y18.087 E5.94996
G1 X221.913 Y187.853 E5.32288
G1 X211.175 Y187.897 E0.33668
G1 X207.886 Y187.877 E0.10312
G1 X47.114 Y187.877 E5.04092
M73 Q0 S580
M73 P0 R525
G1 X43.825 Y187.897 E0.10312
G1 X32.529 Y187.850 E0.35416
G1 X32.489 Y187.846 E0.00126
G1 X32.272 Y187.728 E0.00776
G1 X32.154 Y187.511 E0.00776
G1 X32.150 Y187.471 E0.00126
G1 X32.103 Y175.525 E0.37455
G1 X32.123 Y172.047 E0.10904
G1 X32.123 Y32.953 E4.36120
G1 X32.103 Y29.475 E0.10904
G1 X32.147 Y18.147 E0.35518
G1 X31.772 Y17.710 F10800.000
G1 F1200
G1 X222.290 Y17.710 E5.97356
G1 X222.290 Y188.228 E5.34648
G1 X211.175 Y188.274 E0.34851
G1 X207.885 Y188.254 E0.10314
G1 X47.115 Y188.254 E5.04085
G1 X43.825 Y188.274 E0.10314
G1 X32.511 Y188.227 E0.35477
G1 X32.376 Y188.214 E0.00423
G1 X31.995 Y188.005 E0.01364
G1 X31.786 Y187.624 E0.01364
G1 X31.773 Y187.489 E0.00423
G1 X31.726 Y175.525 E0.37516
G1 X31.746 Y172.046 E0.10907
G1 X31.746 Y32.954 E4.36114
G1 X31.726 Y29.475 E0.10907
G1 X31.772 Y17.770 E0.36702
G1 X32.118 Y17.910 F10800.000
G1 F8640
G1 X35.063 Y17.769 E-0.76000
G1 E-0.04000 F2100.00000
G1 Z0.800 F10800.000
G1 X32.260 Y186.775
G1 Z0.200
G1 E0.80000 F2100.00000
G1 F1200
G1 X33.054 Y187.570 E0.03522
G1 X33.590 Y187.572 E0.01680
G1 X32.428 Y186.410 E0.05151
G1 X32.426 Y185.875 E0.01679
G1 X34.125 Y187.574 E0.07536
G1 X34.661 Y187.576 E0.01680
G1 X32.424 Y185.340 E0.09920
G1 X32.422 Y184.804 E0.01679
G1 X35.197 Y187.579 E0.12304
G1 X35.732 Y187.581 E0.01680
G1 X32.420 Y184.269 E0.14689
G1 X32.418 Y183.733 E0.01679
G1 X36.268 Y187.583 E0.17073
G1 X36.803 Y187.585 E0.01680
G1 X32.416 Y183.198 E0.19458
G1 X32.414 Y182.662 E0.01679
G1 X37.339 Y187.587 E0.21842
G1 X37.874 Y187.589 E0.01680
G1 X32.412 Y182.127 E0.24226
G1 X32.410 Y181.591 E0.01679
G1 X38.410 Y187.592 E0.26611
G1 X38.945 Y187.594 E0.01680
G1 X32.408 Y181.056 E0.28995
G1 X32.405 Y180.521 E0.01679
G1 X39.481 Y187.596 E0.31379
G1 X40.017 Y187.598 E0.01680
G1 X32.403 Y179.985 E0.33764
G1 X32.401 Y179.450 E0.01679
G1 X40.552 Y187.600 E0.36148
G1 X41.088 Y187.603 E0.01680
G1 X32.399 Y178.914 E0.38532
G1 X32.397 Y178.379 E0.01679
G1 X41.623 Y187.605 E0.40917
G1 X42.159 Y187.607 E0.01680
G1 X32.395 Y177.843 E0.43301
G1 X32.393 Y177.308 E0.01679
G1 X42.694 Y187.609 E0.45686
G1 X43.230 Y187.611 E0.01680
G1 X32.391 Y176.772 E0.48070
G1 X32.389 Y176.237 E0.01679
G1 X43.765 Y187.614 E0.50454
G1 X44.296 Y187.611 E0.01664
G1 X32.387 Y175.702 E0.52817
G1 X32.388 Y175.170 E0.01668
G1 X44.826 Y187.608 E0.55162
G1 X45.356 Y187.605 E0.01662
G1 X32.391 Y174.639 E0.57500
G1 X32.394 Y174.109 E0.01663
G1 X45.887 Y187.601 E0.59837
M73 Q0 S579
M73 P0 R524
G1 X46.417 Y187.598 E0.01662
G1 X32.397 Y173.579 E0.62174
G1 X32.400 Y173.048 E0.01663
G1 X46.947 Y187.595 E0.64512
G1 X47.479 Y187.594 E0.01669
G1 X32.404 Y172.518 E0.66859
G1 X32.406 Y171.988 E0.01664
G1 X48.012 Y187.594 E0.69212
G1 X48.546 Y187.594 E0.01673
G1 X32.406 Y171.454 E0.71578
G1 X32.406 Y170.921 E0.01673
G1 X49.079 Y187.594 E0.73943
G1 X49.613 Y187.594 E0.01673
G1 X32.406 Y170.387 E0.76309
G1 X32.406 Y169.854 E0.01673
G1 X50.146 Y187.594 E0.78674
G1 X50.679 Y187.594 E0.01673
G1 X32.406 Y169.321 E0.81039
G1 X32.406 Y168.787 E0.01673
G1 X51.213 Y187.594 E0.83405
G1 X51.746 Y187.594 E0.01673
G1 X32.406 Y168.254 E0.85770
G1 X32.406 Y167.721 E0.01673
G1 X52.279 Y187.594 E0.88136
G1 X52.813 Y187.594 E0.01673
G1 X32.406 Y167.187 E0.90501
G1 X32.406 Y166.654 E0.01673
G1 X53.346 Y187.594 E0.92867
G1 X53.879 Y187.594 E0.01673
G1 X32.406 Y166.121 E0.95232
G1 X32.406 Y165.587 E0.01673
G1 X54.413 Y187.594 E0.97597
G1 X54.946 Y187.594 E0.01673
G1 X32.406 Y165.054 E0.99963
G1 X32.406 Y164.520 E0.01673
G1 X55.480 Y187.594 E1.02328
G1 X56.013 Y187.594 E0.01673
G1 X32.406 Y163.987 E1.04694
G1 X32.406 Y163.454 E0.01673
G1 X56.546 Y187.594 E1.07059
G1 X57.080 Y187.594 E0.01673
G1 X32.406 Y162.920 E1.09425
G1 X32.406 Y162.387 E0.01673
G1 X57.613 Y187.594 E1.11790
G1 X58.146 Y187.594 E0.01673
G1 X32.406 Y161.854 E1.14155
G1 X32.406 Y161.320 E0.01673
G1 X58.680 Y187.594 E1.16521
G1 X59.213 Y187.594 E0.01673
G1 X32.406 Y160.787 E1.18886
G1 X32.406 Y160.254 E0.01673
G1 X59.746 Y187.594 E1.21252
G1 X60.280 Y187.594 E0.01673
G1 X32.406 Y159.720 E1.23617
G1 X32.406 Y159.187 E0.01673
G1 X60.813 Y187.594 E1.25982
G1 X61.347 Y187.594 E0.01673
G1 X32.406 Y158.653 E1.28348
G1 X32.406 Y158.120 E0.01673
G1 X61.880 Y187.594 E1.30713
G1 X62.413 Y187.594 E0.01673
G1 X32.406 Y157.587 E1.33079
G1 X32.406 Y157.053 E0.01673
G1 X62.947 Y187.594 E1.35444
G1 X63.480 Y187.594 E0.01673
G1 X32.406 Y156.520 E1.37810
G1 X32.406 Y155.987 E0.01673
G1 X64.013 Y187.594 E1.40175
G1 X64.547 Y187.594 E0.01673
G1 X32.406 Y155.453 E1.42540
G1 X32.406 Y154.920 E0.01673
G1 X65.080 Y187.594 E1.44906
M73 Q0 S578
M73 P0 R523
G1 X65.613 Y187.594 E0.01673
G1 X32.406 Y154.387 E1.47271
G1 X32.406 Y153.853 E0.01673
G1 X66.147 Y187.594 E1.49637
G1 X66.680 Y187.594 E0.01673
G1 X32.406 Y153.320 E1.52002
G1 X32.406 Y152.786 E0.01673
G1 X67.214 Y187.594 E1.54368
G1 X67.747 Y187.594 E0.01673
G1 X32.406 Y152.253 E1.56733
G1 X32.406 Y151.720 E0.01673
G1 X68.280 Y187.594 E1.59098
G1 X68.814 Y187.594 E0.01673
G1 X32.406 Y151.186 E1.61464
G1 X32.406 Y150.653 E0.01673
G1 X69.347 Y187.594 E1.63829
G1 X69.880 Y187.594 E0.01673
G1 X32.406 Y150.120 E1.66195
G1 X32.406 Y149.586 E0.01673
G1 X70.414 Y187.594 E1.68560
G1 X70.947 Y187.594 E0.01673
G1 X32.406 Y149.053 E1.70925
G1 X32.406 Y148.520 E0.01673
G1 X71.480 Y187.594 E1.73291
G1 X72.014 Y187.594 E0.01673
G1 X32.406 Y147.986 E1.75656
G1 X32.406 Y147.453 E0.01673
G1 X72.547 Y187.594 E1.78022
G1 X73.080 Y187.594 E0.01673
G1 X32.406 Y146.920 E1.80387
G1 X32.406 Y146.386 E0.01673
G1 X73.614 Y187.594 E1.82753
G1 X74.147 Y187.594 E0.01673
G1 X32.406 Y145.853 E1.85118
G1 X32.406 Y145.319 E0.01673
G1 X74.681 Y187.594 E1.87483
G1 X75.214 Y187.594 E0.01673
G1 X32.406 Y144.786 E1.89849
G1 X32.406 Y144.253 E0.01673
G1 X75.747 Y187.594 E1.92214
G1 X76.281 Y187.594 E0.01673
G1 X32.406 Y143.719 E1.94580
G1 X32.406 Y143.186 E0.01673
G1 X76.814 Y187.594 E1.96945
M73 Q0 S577
M73 P0 R522
G1 X77.347 Y187.594 E0.01673
G1 X32.406 Y142.653 E1.99311
G1 X32.406 Y142.119 E0.01673
G1 X77.881 Y187.594 E2.01676
G1 X78.414 Y187.594 E0.01673
G1 X32.406 Y141.586 E2.04041
G1 X32.406 Y141.053 E0.01673
G1 X78.947 Y187.594 E2.06407
G1 X79.481 Y187.594 E0.01673
G1 X32.406 Y140.519 E2.08772
G1 X32.406 Y139.986 E0.01673
G1 X80.014 Y187.594 E2.11138
G1 X80.548 Y187.594 E0.01673
G1 X32.406 Y139.452 E2.13503
G1 X32.406 Y138.919 E0.01673
G1 X81.081 Y187.594 E2.15868
G1 X81.614 Y187.594 E0.01673
G1 X32.406 Y138.386 E2.18234
G1 X32.406 Y137.852 E0.01673
G1 X82.148 Y187.594 E2.20599
G1 X82.681 Y187.594 E0.01673
G1 X32.406 Y137.319 E2.22965
G1 X32.406 Y136.786 E0.01673
G1 X83.214 Y187.594 E2.25330
G1 X83.748 Y187.594 E0.01673
G1 X32.406 Y136.252 E2.27696
G1 X32.406 Y135.719 E0.01673
G1 X84.281 Y187.594 E2.30061
G1 X84.814 Y187.594 E0.01673
G1 X32.406 Y135.186 E2.32426
G1 X32.406 Y134.652 E0.01673
G1 X85.348 Y187.594 E2.34792
G1 X85.881 Y187.594 E0.01673
G1 X32.406 Y134.119 E2.37157
G1 X32.406 Y133.585 E0.01673
G1 X86.415 Y187.594 E2.39523
M73 Q0 S576
M73 P1 R521
G1 X86.948 Y187.594 E0.01673
G1 X32.406 Y133.052 E2.41888
G1 X32.406 Y132.519 E0.01673
G1 X87.481 Y187.594 E2.44254
G1 X88.015 Y187.594 E0.01673
G1 X32.406 Y131.985 E2.46619
G1 X32.406 Y131.452 E0.01673
G1 X88.548 Y187.594 E2.48984
G1 X89.081 Y187.594 E0.01673
G1 X32.406 Y130.919 E2.51350
G1 X32.406 Y130.385 E0.01673
G1 X89.615 Y187.594 E2.53715
G1 X90.148 Y187.594 E0.01673
G1 X32.406 Y129.852 E2.56081
G1 X32.406 Y129.319 E0.01673
G1 X90.681 Y187.594 E2.58446
G1 X91.215 Y187.594 E0.01673
G1 X32.406 Y128.785 E2.60811
G1 X32.406 Y128.252 E0.01673
G1 X91.748 Y187.594 E2.63177
G1 X92.282 Y187.594 E0.01673
G1 X32.406 Y127.718 E2.65542
G1 X32.406 Y127.185 E0.01673
G1 X92.815 Y187.594 E2.67908
G1 X93.348 Y187.594 E0.01673
G1 X32.406 Y126.652 E2.70273
G1 X32.406 Y126.118 E0.01673
G1 X93.882 Y187.594 E2.72639
G1 X94.415 Y187.594 E0.01673
G1 X32.406 Y125.585 E2.75004
M73 Q1 S575
M73 P1 R520
G1 X32.406 Y125.052 E0.01673
G1 X94.948 Y187.594 E2.77369
G1 X95.482 Y187.594 E0.01673
G1 X32.406 Y124.518 E2.79735
G1 X32.406 Y123.985 E0.01673
G1 X96.015 Y187.594 E2.82100
G1 X96.548 Y187.594 E0.01673
G1 X32.406 Y123.452 E2.84466
G1 X32.406 Y122.918 E0.01673
G1 X97.082 Y187.594 E2.86831
G1 X97.615 Y187.594 E0.01673
G1 X32.406 Y122.385 E2.89197
G1 X32.406 Y121.851 E0.01673
G1 X98.149 Y187.594 E2.91562
G1 X98.682 Y187.594 E0.01673
G1 X32.406 Y121.318 E2.93927
G1 X32.406 Y120.785 E0.01673
G1 X99.215 Y187.594 E2.96293
G1 X99.749 Y187.594 E0.01673
G1 X32.406 Y120.251 E2.98658
G1 X32.406 Y119.718 E0.01673
G1 X100.282 Y187.594 E3.01024
G1 X100.815 Y187.594 E0.01673
G1 X32.406 Y119.185 E3.03389
G1 X32.406 Y118.651 E0.01673
G1 X101.349 Y187.594 E3.05754
M73 Q1 S574
M73 P1 R518
G1 X101.882 Y187.594 E0.01673
G1 X32.406 Y118.118 E3.08120
G1 X32.406 Y117.585 E0.01673
G1 X102.415 Y187.594 E3.10485
G1 X102.949 Y187.594 E0.01673
G1 X32.406 Y117.051 E3.12851
G1 X32.406 Y116.518 E0.01673
G1 X103.482 Y187.594 E3.15216
G1 X104.015 Y187.594 E0.01673
G1 X32.406 Y115.985 E3.17582
G1 X32.406 Y115.451 E0.01673
G1 X104.549 Y187.594 E3.19947
G1 X105.082 Y187.594 E0.01673
G1 X32.406 Y114.918 E3.22312
G1 X32.406 Y114.384 E0.01673
G1 X105.616 Y187.594 E3.24678
G1 X106.149 Y187.594 E0.01673
G1 X32.406 Y113.851 E3.27043
G1 X32.406 Y113.318 E0.01673
G1 X106.682 Y187.594 E3.29409
G1 X107.216 Y187.594 E0.01673
G1 X32.406 Y112.784 E3.31774
G1 X32.406 Y112.251 E0.01673
G1 X107.749 Y187.594 E3.34140
M73 Q1 S573
M73 P1 R517
G1 X108.282 Y187.594 E0.01673
G1 X32.406 Y111.718 E3.36505
G1 X32.406 Y111.184 E0.01673
G1 X108.816 Y187.594 E3.38870
G1 X109.349 Y187.594 E0.01673
G1 X32.406 Y110.651 E3.41236
G1 X32.406 Y110.118 E0.01673
G1 X109.882 Y187.594 E3.43601
G1 X110.416 Y187.594 E0.01673
G1 X32.406 Y109.584 E3.45967
G1 X32.406 Y109.051 E0.01673
G1 X110.949 Y187.594 E3.48332
G1 X111.483 Y187.594 E0.01673
G1 X32.406 Y108.517 E3.50697
G1 X32.406 Y107.984 E0.01673
G1 X112.016 Y187.594 E3.53063
G1 X112.549 Y187.594 E0.01673
G1 X32.406 Y107.451 E3.55428
G1 X32.406 Y106.917 E0.01673
G1 X113.083 Y187.594 E3.57794
G1 X113.616 Y187.594 E0.01673
G1 X32.406 Y106.384 E3.60159
M73 Q1 S572
M73 P1 R516
G1 X32.406 Y105.851 E0.01673
G1 X114.149 Y187.594 E3.62525
G1 X114.683 Y187.594 E0.01673
G1 X32.406 Y105.317 E3.64890
G1 X32.406 Y104.784 E0.01673
G1 X115.216 Y187.594 E3.67255
G1 X115.749 Y187.594 E0.01673
G1 X32.406 Y104.251 E3.69621
G1 X32.406 Y103.717 E0.01673
G1 X116.283 Y187.594 E3.71986
G1 X116.816 Y187.594 E0.01673
G1 X32.406 Y103.184 E3.74352
G1 X32.406 Y102.650 E0.01673
G1 X117.350 Y187.594 E3.76717
G1 X117.883 Y187.594 E0.01673
G1 X32.406 Y102.117 E3.79083
G1 X32.406 Y101.584 E0.01673
G1 X118.416 Y187.594 E3.81448
G1 X118.950 Y187.594 E0.01673
G1 X32.406 Y101.050 E3.83813
G1 X32.406 Y100.517 E0.01673
G1 X119.483 Y187.594 E3.86179
M73 Q1 S570
M73 P1 R515
G1 X120.016 Y187.594 E0.01673
G1 X32.406 Y99.984 E3.88544
G1 X32.406 Y99.450 E0.01673
G1 X120.550 Y187.594 E3.90910
G1 X121.083 Y187.594 E0.01673
G1 X32.406 Y98.917 E3.93275
G1 X32.406 Y98.384 E0.01673
G1 X121.616 Y187.594 E3.95640
G1 X122.150 Y187.594 E0.01673
G1 X32.406 Y97.850 E3.98006
G1 X32.406 Y97.317 E0.01673
G1 X122.683 Y187.594 E4.00371
G1 X123.217 Y187.594 E0.01673
G1 X32.406 Y96.783 E4.02737
G1 X32.406 Y96.250 E0.01673
G1 X123.750 Y187.594 E4.05102
G1 X124.283 Y187.594 E0.01673
G1 X32.406 Y95.717 E4.07468
G1 X32.406 Y95.183 E0.01673
G1 X124.817 Y187.594 E4.09833
M73 Q1 S569
M73 P2 R514
G1 X125.350 Y187.594 E0.01673
G1 X32.406 Y94.650 E4.12198
G1 X32.406 Y94.117 E0.01673
G1 X125.883 Y187.594 E4.14564
G1 X126.417 Y187.594 E0.01673
G1 X32.406 Y93.583 E4.16929
G1 X32.406 Y93.050 E0.01673
G1 X126.950 Y187.594 E4.19295
G1 X127.483 Y187.594 E0.01673
G1 X32.406 Y92.517 E4.21660
G1 X32.406 Y91.983 E0.01673
G1 X128.017 Y187.594 E4.24026
G1 X128.550 Y187.594 E0.01673
G1 X32.406 Y91.450 E4.26391
G1 X32.406 Y90.916 E0.01673
G1 X129.084 Y187.594 E4.28756
G1 X129.617 Y187.594 E0.01673
G1 X32.406 Y90.383 E4.31122
M73 Q2 S568
M73 P2 R513
G1 X32.406 Y89.850 E0.01673
G1 X130.150 Y187.594 E4.33487
G1 X130.684 Y187.594 E0.01673
G1 X32.406 Y89.316 E4.35853
G1 X32.406 Y88.783 E0.01673
G1 X131.217 Y187.594 E4.38218
G1 X131.750 Y187.594 E0.01673
G1 X32.406 Y88.250 E4.40583
G1 X32.406 Y87.716 E0.01673
G1 X132.284 Y187.594 E4.42949
G1 X132.817 Y187.594 E0.01673
G1 X32.406 Y87.183 E4.45314
G1 X32.406 Y86.650 E0.01673
G1 X133.350 Y187.594 E4.47680
G1 X133.884 Y187.594 E0.01673
G1 X32.406 Y86.116 E4.50045
G1 X32.406 Y85.583 E0.01673
G1 X134.417 Y187.594 E4.52411
M73 Q2 S567
M73 P2 R512
G1 X134.951 Y187.594 E0.01673
G1 X32.406 Y85.049 E4.54776
G1 X32.406 Y84.516 E0.01673
G1 X135.484 Y187.594 E4.57141
G1 X136.017 Y187.594 E0.01673
G1 X32.406 Y83.983 E4.59507
G1 X32.406 Y83.449 E0.01673
G1 X136.551 Y187.594 E4.61872
G1 X137.084 Y187.594 E0.01673
G1 X32.406 Y82.916 E4.64238
G1 X32.406 Y82.383 E0.01673
G1 X137.617 Y187.594 E4.66603
G1 X138.151 Y187.594 E0.01673
G1 X32.406 Y81.849 E4.68969
G1 X32.406 Y81.316 E0.01673
G1 X138.684 Y187.594 E4.71334
G1 X139.217 Y187.594 E0.01673
G1 X32.406 Y80.783 E4.73699
M73 Q2 S566
M73 P2 R511
G1 X32.406 Y80.249 E0.01673
G1 X139.751 Y187.594 E4.76065
G1 X140.284 Y187.594 E0.01673
G1 X32.406 Y79.716 E4.78430
G1 X32.406 Y79.183 E0.01673
G1 X140.817 Y187.594 E4.80796
G1 X141.351 Y187.594 E0.01673
G1 X32.406 Y78.649 E4.83161
G1 X32.406 Y78.116 E0.01673
G1 X141.884 Y187.594 E4.85526
G1 X142.418 Y187.594 E0.01673
G1 X32.406 Y77.582 E4.87892
G1 X32.406 Y77.049 E0.01673
G1 X142.951 Y187.594 E4.90257
G1 X143.484 Y187.594 E0.01673
G1 X32.406 Y76.516 E4.92623
M73 Q2 S565
M73 P3 R510
G1 X32.406 Y75.982 E0.01673
G1 X144.018 Y187.594 E4.94988
