; generated by PrusaSlicer 2.0.0+ on 2019-06-09 at 09:37:55

; 

; external perimeters extrusion width = 0.45mm
; perimeters extrusion width = 0.45mm
; infill extrusion width = 0.45mm
; solid infill extrusion width = 0.45mm
; top infill extrusion width = 0.40mm
; first layer extrusion width = 0.42mm

M73 P0 R415
M73 Q0 S448
M201 X1000 Y1000 Z1000 E5000 ; sets maximum accelerations, mm/sec^2
M203 X200 Y200 Z12 E120 ; sets maximum feedrates, mm/sec
M204 P1250 R1250 T1250 ; sets acceleration (P, T) and retract acceleration (R), mm/sec^2
M205 X8.00 Y8.00 Z0.40 E1.50 ; sets the jerk limits, mm/sec
M205 S0 T0 ; sets the minimum extruding and travel feed rate, mm/sec
M107
M115 U3.7.1 ; tell printer latest fw version
G90 ; use absolute coordinates
M83 ; extruder relative mode
M104 S215 ; set extruder temp
M140 S60 ; set bed temp
M190 S60 ; wait for bed temp
M109 S215 ; wait for extruder temp
G28 W ; home all without mesh bed level
G80 ; mesh bed leveling
G1 Y-3.0 F1000.0 ; go outside print area
G92 E0.0
G1 X60.0 E9.0 F1000.0 ; intro line
M73 Q0 S448
M73 P0 R415
G1 X100.0 E12.5 F1000.0 ; intro line
G92 E0.0
M221 S95
M900 K30 ; Filament gcode
G21 ; set units to millimeters
G90 ; use absolute coordinates
M83 ; use relative distances for extrusion
;BEFORE_LAYER_CHANGE
G92 E0.0
;0.2


G1 E-0.80000 F2100.00000
G1 Z0.600 F10800.000
;AFTER_LAYER_CHANGE
;0.2
G1 X29.490 Y19.376
G1 Z0.200
G1 E0.80000 F2100.00000
M204 S1000
G1 F1200
G1 X30.645 Y18.582 E0.04395
G1 X31.564 Y18.246 E0.03066
G1 X32.485 Y18.146 E0.02908
G1 X222.548 Y18.147 E5.95927
G1 X223.169 Y18.251 E0.01976
G1 X223.765 Y18.549 E0.02089
G1 X224.246 Y19.015 E0.02100
G1 X224.562 Y19.602 E0.02089
G1 X224.687 Y20.260 E0.02100
G1 X224.689 Y192.507 E5.40070
G1 X224.505 Y193.377 E0.02788
G1 X223.990 Y194.103 E0.02788
G1 X223.302 Y194.536 E0.02552
G1 X222.506 Y194.689 E0.02541
G1 X30.335 Y194.689 E6.02539
G1 X29.461 Y194.506 E0.02799
G1 X28.732 Y193.990 E0.02799
G1 X28.298 Y193.302 E0.02552
G1 X28.146 Y192.506 E0.02541
G1 X28.146 Y22.489 E5.33076
G1 X28.248 Y21.557 E0.02939
G1 X28.597 Y20.609 E0.03168
G1 X28.833 Y20.193 E0.01498
G1 X29.452 Y19.422 E0.03100
G1 F8640
G1 X30.645 Y18.582 E-0.33693
G1 X31.564 Y18.246 E-0.22576
G1 X32.413 Y18.154 E-0.19731
G1 E-0.04000 F2100.00000
G1 Z0.800 F10800.000
G1 X32.272 Y22.272
G1 Z0.200
G1 E0.80000 F2100.00000
G1 F1200
G1 X32.489 Y22.154 E0.00776
G1 X32.529 Y22.150 E0.00126
G1 X43.825 Y22.103 E0.35416
G1 X47.114 Y22.123 E0.10312
G1 X207.886 Y22.123 E5.04092
G1 X211.175 Y22.103 E0.10312
G1 X221.913 Y22.147 E0.33668
G1 X221.913 Y191.913 E5.32288
G1 X32.147 Y191.913 E5.94996
M73 Q0 S447
M73 P0 R414
G1 X32.103 Y180.525 E0.35707
G1 X32.123 Y177.047 E0.10904
G1 X32.123 Y37.953 E4.36120
G1 X32.103 Y34.475 E0.10904
G1 X32.150 Y22.529 E0.37455
G1 X32.154 Y22.489 E0.00126
G1 X32.244 Y22.325 E0.00588
G1 X31.995 Y21.995 F10800.000
G1 F1200
G1 X32.376 Y21.786 E0.01364
G1 X32.511 Y21.773 E0.00423
G1 X43.825 Y21.726 E0.35477
G1 X47.115 Y21.746 E0.10314
G1 X207.885 Y21.746 E5.04085
G1 X211.175 Y21.726 E0.10314
G1 X222.290 Y21.772 E0.34851
G1 X222.290 Y192.290 E5.34648
G1 X31.772 Y192.290 E5.97356
G1 X31.726 Y180.524 E0.36890
G1 X31.746 Y177.046 E0.10907
G1 X31.746 Y37.954 E4.36114
G1 X31.726 Y34.476 E0.10907
G1 X31.773 Y22.511 E0.37516
G1 X31.786 Y22.376 E0.00423
G1 X31.966 Y22.047 E0.01176
G1 X32.374 Y22.122 F10800.000
G1 F8640
G1 X32.376 Y21.786 E-0.11236
G1 X32.511 Y21.773 E-0.03118
G1 X35.180 Y21.762 E-0.61646
G1 E-0.04000 F2100.00000
G1 Z0.800 F10800.000
G1 X32.257 Y191.034
G1 Z0.200
G1 E0.80000 F2100.00000
G1 F1200
G1 X32.853 Y191.630 E0.02646
G1 X33.387 Y191.630 E0.01674
G1 X32.425 Y190.668 E0.04267
G1 X32.423 Y190.133 E0.01681
G1 X33.921 Y191.630 E0.06645
G1 X34.454 Y191.630 E0.01674
G1 X32.421 Y189.597 E0.09022
G1 X32.419 Y189.061 E0.01681
G1 X34.988 Y191.630 E0.11399
G1 X35.522 Y191.630 E0.01674
G1 X32.417 Y188.525 E0.13777
G1 X32.415 Y187.990 E0.01681
G1 X36.055 Y191.630 E0.16154
G1 X36.589 Y191.630 E0.01674
G1 X32.413 Y187.454 E0.18531
G1 X32.411 Y186.918 E0.01681
G1 X37.123 Y191.630 E0.20909
G1 X37.656 Y191.630 E0.01674
G1 X32.409 Y186.383 E0.23286
G1 X32.407 Y185.847 E0.01681
G1 X38.190 Y191.630 E0.25663
G1 X38.724 Y191.630 E0.01674
G1 X32.405 Y185.311 E0.28040
G1 X32.403 Y184.775 E0.01681
G1 X39.257 Y191.630 E0.30418
G1 X39.791 Y191.630 E0.01674
G1 X32.401 Y184.240 E0.32795
G1 X32.398 Y183.704 E0.01681
G1 X40.325 Y191.630 E0.35172
G1 X40.858 Y191.630 E0.01674
G1 X32.396 Y183.168 E0.37550
G1 X32.394 Y182.632 E0.01681
G1 X41.392 Y191.630 E0.39927
G1 X41.926 Y191.630 E0.01674
G1 X32.392 Y182.097 E0.42304
G1 X32.390 Y181.561 E0.01681
G1 X42.459 Y191.630 E0.44682
G1 X42.993 Y191.630 E0.01674
G1 X32.388 Y181.025 E0.47059
G1 X32.386 Y180.490 E0.01680
G1 X43.527 Y191.630 E0.49435
G1 X44.060 Y191.630 E0.01674
G1 X32.389 Y179.959 E0.51789
G1 X32.392 Y179.429 E0.01665
G1 X44.594 Y191.630 E0.54144
G1 X45.128 Y191.630 E0.01674
G1 X32.396 Y178.898 E0.56498
G1 X32.399 Y178.367 E0.01665
G1 X45.661 Y191.630 E0.58852
G1 X46.195 Y191.630 E0.01674
G1 X32.402 Y177.837 E0.61207
M73 Q0 S446
M73 P0 R413
G1 X32.405 Y177.306 E0.01665
G1 X46.729 Y191.630 E0.63561
G1 X47.262 Y191.630 E0.01674
G1 X32.406 Y176.774 E0.65923
G1 X32.406 Y176.240 E0.01674
G1 X47.796 Y191.630 E0.68291
G1 X48.330 Y191.630 E0.01674
G1 X32.406 Y175.707 E0.70659
G1 X32.406 Y175.173 E0.01674
G1 X48.863 Y191.630 E0.73027
G1 X49.397 Y191.630 E0.01674
G1 X32.406 Y174.639 E0.75395
G1 X32.406 Y174.106 E0.01674
G1 X49.931 Y191.630 E0.77763
G1 X50.464 Y191.630 E0.01674
G1 X32.406 Y173.572 E0.80131
G1 X32.406 Y173.038 E0.01674
G1 X50.998 Y191.630 E0.82499
G1 X51.532 Y191.630 E0.01674
G1 X32.406 Y172.505 E0.84867
G1 X32.406 Y171.971 E0.01674
G1 X52.065 Y191.630 E0.87236
G1 X52.599 Y191.630 E0.01674
G1 X32.406 Y171.437 E0.89604
G1 X32.406 Y170.904 E0.01674
G1 X53.133 Y191.630 E0.91972
G1 X53.666 Y191.630 E0.01674
G1 X32.406 Y170.370 E0.94340
G1 X32.406 Y169.836 E0.01674
G1 X54.200 Y191.630 E0.96708
G1 X54.734 Y191.630 E0.01674
G1 X32.406 Y169.303 E0.99076
G1 X32.406 Y168.769 E0.01674
G1 X55.267 Y191.630 E1.01444
G1 X55.801 Y191.630 E0.01674
G1 X32.406 Y168.235 E1.03812
G1 X32.406 Y167.702 E0.01674
G1 X56.335 Y191.630 E1.06180
G1 X56.868 Y191.630 E0.01674
G1 X32.406 Y167.168 E1.08548
G1 X32.406 Y166.634 E0.01674
G1 X57.402 Y191.630 E1.10916
G1 X57.936 Y191.630 E0.01674
G1 X32.406 Y166.101 E1.13284
G1 X32.406 Y165.567 E0.01674
G1 X58.469 Y191.630 E1.15652
G1 X59.003 Y191.630 E0.01674
G1 X32.406 Y165.033 E1.18021
G1 X32.406 Y164.500 E0.01674
G1 X59.537 Y191.630 E1.20389
G1 X60.070 Y191.630 E0.01674
G1 X32.406 Y163.966 E1.22757
G1 X32.406 Y163.432 E0.01674
G1 X60.604 Y191.630 E1.25125
G1 X61.138 Y191.630 E0.01674
G1 X32.406 Y162.899 E1.27493
G1 X32.406 Y162.365 E0.01674
G1 X61.671 Y191.630 E1.29861
G1 X62.205 Y191.630 E0.01674
G1 X32.406 Y161.831 E1.32229
G1 X32.406 Y161.298 E0.01674
G1 X62.739 Y191.630 E1.34597
G1 X63.272 Y191.630 E0.01674
G1 X32.406 Y160.764 E1.36965
G1 X32.406 Y160.230 E0.01674
G1 X63.806 Y191.630 E1.39333
G1 X64.340 Y191.630 E0.01674
G1 X32.406 Y159.697 E1.41701
G1 X32.406 Y159.163 E0.01674
G1 X64.873 Y191.630 E1.44069
G1 X65.407 Y191.630 E0.01674
G1 X32.406 Y158.630 E1.46438
M73 Q0 S445
M73 P0 R412
G1 X32.406 Y158.096 E0.01674
G1 X65.941 Y191.630 E1.48806
G1 X66.474 Y191.630 E0.01674
G1 X32.406 Y157.562 E1.51174
G1 X32.406 Y157.029 E0.01674
G1 X67.008 Y191.630 E1.53542
G1 X67.542 Y191.630 E0.01674
G1 X32.406 Y156.495 E1.55910
G1 X32.406 Y155.961 E0.01674
G1 X68.075 Y191.630 E1.58278
G1 X68.609 Y191.630 E0.01674
G1 X32.406 Y155.428 E1.60646
G1 X32.406 Y154.894 E0.01674
G1 X69.143 Y191.630 E1.63014
G1 X69.676 Y191.630 E0.01674
G1 X32.406 Y154.360 E1.65382
G1 X32.406 Y153.827 E0.01674
G1 X70.210 Y191.630 E1.67750
G1 X70.743 Y191.630 E0.01674
G1 X32.406 Y153.293 E1.70118
G1 X32.406 Y152.759 E0.01674
G1 X71.277 Y191.630 E1.72486
G1 X71.811 Y191.630 E0.01674
G1 X32.406 Y152.226 E1.74855
G1 X32.406 Y151.692 E0.01674
G1 X72.344 Y191.630 E1.77223
G1 X72.878 Y191.630 E0.01674
G1 X32.406 Y151.158 E1.79591
G1 X32.406 Y150.625 E0.01674
G1 X73.412 Y191.630 E1.81959
G1 X73.945 Y191.630 E0.01674
G1 X32.406 Y150.091 E1.84327
G1 X32.406 Y149.557 E0.01674
G1 X74.479 Y191.630 E1.86695
G1 X75.013 Y191.630 E0.01674
G1 X32.406 Y149.024 E1.89063
G1 X32.406 Y148.490 E0.01674
G1 X75.546 Y191.630 E1.91431
G1 X76.080 Y191.630 E0.01674
G1 X32.406 Y147.956 E1.93799
G1 X32.406 Y147.423 E0.01674
G1 X76.614 Y191.630 E1.96167
G1 X77.147 Y191.630 E0.01674
G1 X32.406 Y146.889 E1.98535
M73 Q0 S444
M73 P1 R410
G1 X32.406 Y146.355 E0.01674
G1 X77.681 Y191.630 E2.00903
G1 X78.215 Y191.630 E0.01674
G1 X32.406 Y145.822 E2.03271
G1 X32.406 Y145.288 E0.01674
G1 X78.748 Y191.630 E2.05640
G1 X79.282 Y191.630 E0.01674
G1 X32.406 Y144.754 E2.08008
G1 X32.406 Y144.221 E0.01674
G1 X79.816 Y191.630 E2.10376
G1 X80.349 Y191.630 E0.01674
G1 X32.406 Y143.687 E2.12744
G1 X32.406 Y143.153 E0.01674
G1 X80.883 Y191.630 E2.15112
G1 X81.417 Y191.630 E0.01674
G1 X32.406 Y142.620 E2.17480
G1 X32.406 Y142.086 E0.01674
G1 X81.950 Y191.630 E2.19848
G1 X82.484 Y191.630 E0.01674
G1 X32.406 Y141.552 E2.22216
G1 X32.406 Y141.019 E0.01674
G1 X83.018 Y191.630 E2.24584
G1 X83.551 Y191.630 E0.01674
G1 X32.406 Y140.485 E2.26952
G1 X32.406 Y139.951 E0.01674
G1 X84.085 Y191.630 E2.29320
G1 X84.619 Y191.630 E0.01674
G1 X32.406 Y139.418 E2.31688
G1 X32.406 Y138.884 E0.01674
G1 X85.152 Y191.630 E2.34057
G1 X85.686 Y191.630 E0.01674
G1 X32.406 Y138.350 E2.36425
G1 X32.406 Y137.817 E0.01674
G1 X86.220 Y191.630 E2.38793
M73 Q1 S443
M73 P1 R409
G1 X86.753 Y191.630 E0.01674
G1 X32.406 Y137.283 E2.41161
G1 X32.406 Y136.749 E0.01674
G1 X87.287 Y191.630 E2.43529
G1 X87.821 Y191.630 E0.01674
G1 X32.406 Y136.216 E2.45897
G1 X32.406 Y135.682 E0.01674
G1 X88.354 Y191.630 E2.48265
G1 X88.888 Y191.630 E0.01674
G1 X32.406 Y135.148 E2.50633
G1 X32.406 Y134.615 E0.01674
G1 X89.422 Y191.630 E2.53001
G1 X89.955 Y191.630 E0.01674
G1 X32.406 Y134.081 E2.55369
G1 X32.406 Y133.547 E0.01674
G1 X90.489 Y191.630 E2.57737
G1 X91.023 Y191.630 E0.01674
G1 X32.406 Y133.014 E2.60105
G1 X32.406 Y132.480 E0.01674
G1 X91.556 Y191.630 E2.62474
G1 X92.090 Y191.630 E0.01674
G1 X32.406 Y131.946 E2.64842
G1 X32.406 Y131.413 E0.01674
G1 X92.624 Y191.630 E2.67210
G1 X93.157 Y191.630 E0.01674
G1 X32.406 Y130.879 E2.69578
G1 X32.406 Y130.345 E0.01674
G1 X93.691 Y191.630 E2.71946
G1 X94.225 Y191.630 E0.01674
G1 X32.406 Y129.812 E2.74314
M73 Q1 S442
M73 P1 R408
G1 X32.406 Y129.278 E0.01674
G1 X94.758 Y191.630 E2.76682
G1 X95.292 Y191.630 E0.01674
G1 X32.406 Y128.744 E2.79050
G1 X32.406 Y128.211 E0.01674
G1 X95.826 Y191.630 E2.81418
G1 X96.359 Y191.630 E0.01674
G1 X32.406 Y127.677 E2.83786
G1 X32.406 Y127.143 E0.01674
G1 X96.893 Y191.630 E2.86154
G1 X97.427 Y191.630 E0.01674
G1 X32.406 Y126.610 E2.88522
G1 X32.406 Y126.076 E0.01674
G1 X97.960 Y191.630 E2.90890
G1 X98.494 Y191.630 E0.01674
G1 X32.406 Y125.542 E2.93259
G1 X32.406 Y125.009 E0.01674
G1 X99.028 Y191.630 E2.95627
G1 X99.561 Y191.630 E0.01674
G1 X32.406 Y124.475 E2.97995
G1 X32.406 Y123.941 E0.01674
G1 X100.095 Y191.630 E3.00363
G1 X100.629 Y191.630 E0.01674
G1 X32.406 Y123.408 E3.02731
G1 X32.406 Y122.874 E0.01674
G1 X101.162 Y191.630 E3.05099
M73 Q1 S441
M73 P1 R407
G1 X101.696 Y191.630 E0.01674
G1 X32.406 Y122.340 E3.07467
G1 X32.406 Y121.807 E0.01674
G1 X102.230 Y191.630 E3.09835
G1 X102.763 Y191.630 E0.01674
G1 X32.406 Y121.273 E3.12203
G1 X32.406 Y120.740 E0.01674
G1 X103.297 Y191.630 E3.14571
G1 X103.831 Y191.630 E0.01674
G1 X32.406 Y120.206 E3.16939
G1 X32.406 Y119.672 E0.01674
G1 X104.364 Y191.630 E3.19307
G1 X104.898 Y191.630 E0.01674
G1 X32.406 Y119.139 E3.21676
G1 X32.406 Y118.605 E0.01674
G1 X105.432 Y191.630 E3.24044
G1 X105.965 Y191.630 E0.01674
G1 X32.406 Y118.071 E3.26412
G1 X32.406 Y117.538 E0.01674
G1 X106.499 Y191.630 E3.28780
G1 X107.033 Y191.630 E0.01674
G1 X32.406 Y117.004 E3.31148
G1 X32.406 Y116.470 E0.01674
G1 X107.566 Y191.630 E3.33516
M73 Q1 S440
M73 P2 R406
G1 X108.100 Y191.630 E0.01674
G1 X32.406 Y115.937 E3.35884
G1 X32.406 Y115.403 E0.01674
G1 X108.633 Y191.630 E3.38252
G1 X109.167 Y191.630 E0.01674
G1 X32.406 Y114.869 E3.40620
G1 X32.406 Y114.336 E0.01674
G1 X109.701 Y191.630 E3.42988
G1 X110.234 Y191.630 E0.01674
G1 X32.406 Y113.802 E3.45356
G1 X32.406 Y113.268 E0.01674
G1 X110.768 Y191.630 E3.47724
G1 X111.302 Y191.630 E0.01674
G1 X32.406 Y112.735 E3.50092
G1 X32.406 Y112.201 E0.01674
G1 X111.835 Y191.630 E3.52461
G1 X112.369 Y191.630 E0.01674
G1 X32.406 Y111.667 E3.54829
G1 X32.406 Y111.134 E0.01674
G1 X112.903 Y191.630 E3.57197
G1 X113.436 Y191.630 E0.01674
G1 X32.406 Y110.600 E3.59565
M73 Q2 S439
M73 P2 R405
G1 X32.406 Y110.066 E0.01674
G1 X113.970 Y191.630 E3.61933
G1 X114.504 Y191.630 E0.01674
G1 X32.406 Y109.533 E3.64301
G1 X32.406 Y108.999 E0.01674
G1 X115.037 Y191.630 E3.66669
G1 X115.571 Y191.630 E0.01674
G1 X32.406 Y108.465 E3.69037
G1 X32.406 Y107.932 E0.01674
G1 X116.105 Y191.630 E3.71405
G1 X116.638 Y191.630 E0.01674
G1 X32.406 Y107.398 E3.73773
G1 X32.406 Y106.864 E0.01674
G1 X117.172 Y191.630 E3.76141
G1 X117.706 Y191.630 E0.01674
G1 X32.406 Y106.331 E3.78509
G1 X32.406 Y105.797 E0.01674
G1 X118.239 Y191.630 E3.80878
G1 X118.773 Y191.630 E0.01674
G1 X32.406 Y105.263 E3.83246
G1 X32.406 Y104.730 E0.01674
G1 X119.307 Y191.630 E3.85614
M73 Q2 S438
M73 P2 R404
G1 X119.840 Y191.630 E0.01674
G1 X32.406 Y104.196 E3.87982
G1 X32.406 Y103.662 E0.01674
G1 X120.374 Y191.630 E3.90350
G1 X120.908 Y191.630 E0.01674
G1 X32.406 Y103.129 E3.92718
G1 X32.406 Y102.595 E0.01674
G1 X121.441 Y191.630 E3.95086
G1 X121.975 Y191.630 E0.01674
G1 X32.406 Y102.061 E3.97454
G1 X32.406 Y101.528 E0.01674
G1 X122.509 Y191.630 E3.99822
G1 X123.042 Y191.630 E0.01674
G1 X32.406 Y100.994 E4.02190
G1 X32.406 Y100.460 E0.01674
G1 X123.576 Y191.630 E4.04558
G1 X124.110 Y191.630 E0.01674
G1 X32.406 Y99.927 E4.06926
G1 X32.406 Y99.393 E0.01674
G1 X124.643 Y191.630 E4.09295
M73 Q2 S437
M73 P2 R403
G1 X125.177 Y191.630 E0.01674
G1 X32.406 Y98.859 E4.11663
G1 X32.406 Y98.326 E0.01674
G1 X125.711 Y191.630 E4.14031
G1 X126.244 Y191.630 E0.01674
G1 X32.406 Y97.792 E4.16399
G1 X32.406 Y97.258 E0.01674
G1 X126.778 Y191.630 E4.18767
G1 X127.312 Y191.630 E0.01674
G1 X32.406 Y96.725 E4.21135
G1 X32.406 Y96.191 E0.01674
G1 X127.845 Y191.630 E4.23503
G1 X128.379 Y191.630 E0.01674
G1 X32.406 Y95.657 E4.25871
G1 X32.406 Y95.124 E0.01674
G1 X128.913 Y191.630 E4.28239
G1 X129.446 Y191.630 E0.01674
G1 X32.406 Y94.590 E4.30607
M73 Q2 S436
M73 P3 R402
G1 X32.406 Y94.056 E0.01674
G1 X129.980 Y191.630 E4.32975
G1 X130.514 Y191.630 E0.01674
G1 X32.406 Y93.523 E4.35343
G1 X32.406 Y92.989 E0.01674
G1 X131.047 Y191.630 E4.37711
G1 X131.581 Y191.630 E0.01674
G1 X32.406 Y92.455 E4.40080
G1 X32.406 Y91.922 E0.01674
G1 X132.115 Y191.630 E4.42448
G1 X132.648 Y191.630 E0.01674
G1 X32.406 Y91.388 E4.44816
G1 X32.406 Y90.854 E0.01674
G1 X133.182 Y191.630 E4.47184
G1 X133.716 Y191.630 E0.01674
G1 X32.406 Y90.321 E4.49552
G1 X32.406 Y89.787 E0.01674
G1 X134.249 Y191.630 E4.51920
M73 Q3 S435
M73 P3 R401
G1 X134.783 Y191.630 E0.01674
G1 X32.406 Y89.253 E4.54288
G1 X32.406 Y88.720 E0.01674
G1 X135.317 Y191.630 E4.56656
G1 X135.850 Y191.630 E0.01674
G1 X32.406 Y88.186 E4.59024
G1 X32.406 Y87.652 E0.01674
G1 X136.384 Y191.630 E4.61392
G1 X136.918 Y191.630 E0.01674
G1 X32.406 Y87.119 E4.63760
G1 X32.406 Y86.585 E0.01674
G1 X137.451 Y191.630 E4.66128
G1 X137.985 Y191.630 E0.01674
G1 X32.406 Y86.051 E4.68497
G1 X32.406 Y85.518 E0.01674
G1 X138.519 Y191.630 E4.70865
G1 X139.052 Y191.630 E0.01674
G1 X32.406 Y84.984 E4.73233
M73 Q3 S433
M73 P3 R400
G1 X32.406 Y84.450 E0.01674
G1 X139.586 Y191.630 E4.75601
G1 X140.120 Y191.630 E0.01674
G1 X32.406 Y83.917 E4.77969
G1 X32.406 Y83.383 E0.01674
G1 X140.653 Y191.630 E4.80337
G1 X141.187 Y191.630 E0.01674
G1 X32.406 Y82.850 E4.82705
G1 X32.406 Y82.316 E0.01674
G1 X141.721 Y191.630 E4.85073
G1 X142.254 Y191.630 E0.01674
G1 X32.406 Y81.782 E4.87441
G1 X32.406 Y81.249 E0.01674
G1 X142.788 Y191.630 E4.89809
G1 X143.322 Y191.630 E0.01674
G1 X32.406 Y80.715 E4.92177
M73 Q3 S432
M73 P3 R399
G1 X32.406 Y80.181 E0.01674
