; generated by PrusaSlicer 2.0.0+ on 2019-06-09 at 09:35:17

; 

; external perimeters extrusion width = 0.45mm
; perimeters extrusion width = 0.45mm
; infill extrusion width = 0.45mm
; solid infill extrusion width = 0.45mm
; top infill extrusion width = 0.40mm
; first layer extrusion width = 0.42mm

M73 P0 R434
M73 Q0 S469
M201 X1000 Y1000 Z1000 E5000 ; sets maximum accelerations, mm/sec^2
M203 X200 Y200 Z12 E120 ; sets maximum feedrates, mm/sec
M204 P1250 R1250 T1250 ; sets acceleration (P, T) and retract acceleration (R), mm/sec^2
M205 X8.00 Y8.00 Z0.40 E1.50 ; sets the jerk limits, mm/sec
M205 S0 T0 ; sets the minimum extruding and travel feed rate, mm/sec
M107
M115 U3.7.1 ; tell printer latest fw version
G90 ; use absolute coordinates
M83 ; extruder relative mode
M104 S215 ; set extruder temp
M140 S60 ; set bed temp
M190 S60 ; wait for bed temp
M109 S215 ; wait for extruder temp
G28 W ; home all without mesh bed level
G80 ; mesh bed leveling
G1 Y-3.0 F1000.0 ; go outside print area
G92 E0.0
G1 X60.0 E9.0 F1000.0 ; intro line
M73 Q0 S469
M73 P0 R434
G1 X100.0 E12.5 F1000.0 ; intro line
G92 E0.0
M221 S95
M900 K30 ; Filament gcode
G21 ; set units to millimeters
G90 ; use absolute coordinates
M83 ; use relative distances for extrusion
;BEFORE_LAYER_CHANGE
G92 E0.0
;0.2


G1 E-0.80000 F2100.00000
G1 Z0.600 F10800.000
;AFTER_LAYER_CHANGE
;0.2
G1 X21.732 Y15.451
G1 Z0.200
G1 E0.80000 F2100.00000
M204 S1000
G1 F1200
G1 X22.494 Y15.311 E0.02428
G1 X224.669 Y15.311 E6.33905
G1 X225.502 Y15.478 E0.02664
G1 X226.212 Y15.952 E0.02676
G1 X226.687 Y16.661 E0.02676
G1 X226.854 Y17.494 E0.02664
G1 X226.865 Y187.585 E5.33309
G1 X226.783 Y188.219 E0.02004
G1 X226.492 Y189.196 E0.03196
G1 X225.973 Y190.102 E0.03275
G1 X225.210 Y190.886 E0.03428
G1 X223.977 Y191.588 E0.04448
G1 X222.566 Y191.865 E0.04507
G1 X22.492 Y191.854 E6.27318
G1 X21.585 Y191.654 E0.02911
G1 X20.843 Y191.095 E0.02911
G1 X20.450 Y190.432 E0.02417
G1 X20.311 Y189.671 E0.02428
G1 X20.311 Y17.496 E5.39840
G1 X20.510 Y16.589 E0.02911
G1 X20.748 Y16.188 E0.01464
G1 X21.069 Y15.844 E0.01475
G1 X21.681 Y15.481 E0.02229
G1 F8640
G1 X22.494 Y15.311 E-0.19186
G1 X24.955 Y15.311 E-0.56814
G1 E-0.04000 F2100.00000
G1 Z0.800 F10800.000
G1 X23.087 Y18.087
G1 Z0.200
G1 E0.80000 F2100.00000
G1 F1200
G1 X222.851 Y18.087 E6.26345
G1 X222.850 Y187.439 E5.30990
M73 Q0 S468
M73 P0 R433
G1 X222.811 Y187.622 E0.00588
G1 X222.622 Y187.811 E0.00840
G1 X222.438 Y187.850 E0.00589
G1 X216.928 Y187.857 E0.17276
G1 X207.116 Y187.841 E0.30767
G1 X23.087 Y187.850 E5.77009
G1 X23.087 Y18.147 E5.32092
G1 X22.710 Y17.710 F10800.000
G1 F1200
G1 X223.228 Y17.710 E6.28709
G1 X223.227 Y187.478 E5.32296
G1 X223.138 Y187.829 E0.01134
G1 X222.829 Y188.138 E0.01372
G1 X222.478 Y188.227 E0.01135
G1 X22.710 Y188.227 E6.26358
G1 X22.710 Y17.770 E5.34457
G1 X23.099 Y17.803 F10800.000
G1 F8640
G1 X26.001 Y17.769 E-0.76000
G1 E-0.04000 F2100.00000
G1 Z0.800 F10800.000
G1 X23.963 Y187.737
G1 Z0.200
G1 E0.80000 F2100.00000
G1 F1200
G1 X23.370 Y187.144 E0.02633
G1 X23.370 Y186.610 E0.01673
G1 X24.327 Y187.567 E0.04246
G1 X24.861 Y187.567 E0.01673
G1 X23.370 Y186.077 E0.06612
G1 X23.370 Y185.543 E0.01673
G1 X25.394 Y187.567 E0.08978
G1 X25.927 Y187.567 E0.01673
G1 X23.370 Y185.010 E0.11344
G1 X23.370 Y184.476 E0.01673
G1 X26.461 Y187.567 E0.13711
G1 X26.994 Y187.567 E0.01673
G1 X23.370 Y183.943 E0.16077
G1 X23.370 Y183.409 E0.01673
G1 X27.528 Y187.567 E0.18443
G1 X28.061 Y187.567 E0.01673
G1 X23.370 Y182.876 E0.20809
G1 X23.370 Y182.342 E0.01673
G1 X28.595 Y187.567 E0.23175
M73 Q0 S467
G1 X29.128 Y187.567 E0.01673
G1 X23.370 Y181.809 E0.25541
G1 X23.370 Y181.276 E0.01673
G1 X29.661 Y187.567 E0.27907
M73 P0 R432
G1 X30.195 Y187.567 E0.01673
G1 X23.370 Y180.742 E0.30273
G1 X23.370 Y180.209 E0.01673
G1 X30.728 Y187.567 E0.32639
G1 X31.262 Y187.567 E0.01673
G1 X23.370 Y179.675 E0.35005
G1 X23.370 Y179.142 E0.01673
G1 X31.795 Y187.567 E0.37372
G1 X32.329 Y187.567 E0.01673
G1 X23.370 Y178.608 E0.39738
G1 X23.370 Y178.075 E0.01673
G1 X32.862 Y187.567 E0.42104
G1 X33.395 Y187.567 E0.01673
G1 X23.370 Y177.541 E0.44470
G1 X23.370 Y177.008 E0.01673
G1 X33.929 Y187.567 E0.46836
G1 X34.462 Y187.567 E0.01673
G1 X23.370 Y176.475 E0.49202
G1 X23.370 Y175.941 E0.01673
G1 X34.996 Y187.567 E0.51568
G1 X35.529 Y187.567 E0.01673
G1 X23.370 Y175.408 E0.53934
G1 X23.370 Y174.874 E0.01673
G1 X36.062 Y187.567 E0.56300
G1 X36.596 Y187.567 E0.01673
G1 X23.370 Y174.341 E0.58667
G1 X23.370 Y173.807 E0.01673
G1 X37.129 Y187.567 E0.61033
G1 X37.663 Y187.567 E0.01673
G1 X23.370 Y173.274 E0.63399
G1 X23.370 Y172.740 E0.01673
G1 X38.196 Y187.567 E0.65765
G1 X38.730 Y187.567 E0.01673
G1 X23.370 Y172.207 E0.68131
G1 X23.370 Y171.673 E0.01673
G1 X39.263 Y187.567 E0.70497
G1 X39.796 Y187.567 E0.01673
G1 X23.370 Y171.140 E0.72863
G1 X23.370 Y170.607 E0.01673
G1 X40.330 Y187.567 E0.75229
G1 X40.863 Y187.567 E0.01673
G1 X23.370 Y170.073 E0.77595
G1 X23.370 Y169.540 E0.01673
G1 X41.397 Y187.567 E0.79961
G1 X41.930 Y187.566 E0.01673
G1 X23.370 Y169.006 E0.82328
G1 X23.370 Y168.473 E0.01673
G1 X42.464 Y187.566 E0.84694
G1 X42.997 Y187.566 E0.01673
G1 X23.370 Y167.939 E0.87060
G1 X23.370 Y167.406 E0.01673
G1 X43.530 Y187.566 E0.89426
G1 X44.064 Y187.566 E0.01673
G1 X23.370 Y166.872 E0.91792
G1 X23.370 Y166.339 E0.01673
G1 X44.597 Y187.566 E0.94158
G1 X45.131 Y187.566 E0.01673
G1 X23.370 Y165.805 E0.96524
G1 X23.370 Y165.272 E0.01673
G1 X45.664 Y187.566 E0.98890
G1 X46.198 Y187.566 E0.01673
G1 X23.370 Y164.739 E1.01256
G1 X23.370 Y164.205 E0.01673
G1 X46.731 Y187.566 E1.03623
G1 X47.264 Y187.566 E0.01673
G1 X23.370 Y163.672 E1.05989
G1 X23.370 Y163.138 E0.01673
G1 X47.798 Y187.566 E1.08355
G1 X48.331 Y187.566 E0.01673
G1 X23.370 Y162.605 E1.10721
G1 X23.370 Y162.071 E0.01673
G1 X48.865 Y187.566 E1.13087
G1 X49.398 Y187.566 E0.01673
G1 X23.370 Y161.538 E1.15453
G1 X23.370 Y161.004 E0.01673
G1 X49.932 Y187.566 E1.17819
G1 X50.465 Y187.566 E0.01673
G1 X23.370 Y160.471 E1.20185
G1 X23.370 Y159.937 E0.01673
G1 X50.998 Y187.566 E1.22551
G1 X51.532 Y187.566 E0.01673
G1 X23.370 Y159.404 E1.24918
G1 X23.370 Y158.871 E0.01673
G1 X52.065 Y187.566 E1.27284
G1 X52.599 Y187.566 E0.01673
G1 X23.370 Y158.337 E1.29650
G1 X23.370 Y157.804 E0.01673
G1 X53.132 Y187.566 E1.32016
G1 X53.666 Y187.566 E0.01673
G1 X23.370 Y157.270 E1.34382
M73 Q0 S466
M73 P0 R431
G1 X23.370 Y156.737 E0.01673
G1 X54.199 Y187.566 E1.36748
G1 X54.732 Y187.566 E0.01673
G1 X23.370 Y156.203 E1.39114
G1 X23.370 Y155.670 E0.01673
G1 X55.266 Y187.566 E1.41480
G1 X55.799 Y187.566 E0.01673
G1 X23.370 Y155.136 E1.43846
G1 X23.370 Y154.603 E0.01673
G1 X56.333 Y187.566 E1.46212
G1 X56.866 Y187.566 E0.01673
G1 X23.370 Y154.069 E1.48579
G1 X23.370 Y153.536 E0.01673
G1 X57.400 Y187.566 E1.50945
G1 X57.933 Y187.566 E0.01673
G1 X23.370 Y153.003 E1.53311
G1 X23.370 Y152.469 E0.01673
G1 X58.466 Y187.566 E1.55677
G1 X59.000 Y187.566 E0.01673
G1 X23.370 Y151.936 E1.58043
G1 X23.370 Y151.402 E0.01673
G1 X59.533 Y187.566 E1.60409
G1 X60.067 Y187.566 E0.01673
G1 X23.370 Y150.869 E1.62775
G1 X23.370 Y150.335 E0.01673
G1 X60.600 Y187.566 E1.65141
G1 X61.134 Y187.566 E0.01673
G1 X23.370 Y149.802 E1.67507
G1 X23.370 Y149.268 E0.01673
G1 X61.667 Y187.566 E1.69874
G1 X62.200 Y187.565 E0.01673
G1 X23.370 Y148.735 E1.72240
G1 X23.370 Y148.202 E0.01673
G1 X62.734 Y187.565 E1.74606
G1 X63.267 Y187.565 E0.01673
G1 X23.370 Y147.668 E1.76972
G1 X23.370 Y147.135 E0.01673
G1 X63.801 Y187.565 E1.79338
G1 X64.334 Y187.565 E0.01673
G1 X23.370 Y146.601 E1.81704
G1 X23.370 Y146.068 E0.01673
G1 X64.868 Y187.565 E1.84070
G1 X65.401 Y187.565 E0.01673
G1 X23.370 Y145.534 E1.86436
G1 X23.370 Y145.001 E0.01673
G1 X65.934 Y187.565 E1.88802
M73 Q0 S465
M73 P0 R430
G1 X66.468 Y187.565 E0.01673
G1 X23.370 Y144.467 E1.91168
G1 X23.370 Y143.934 E0.01673
G1 X67.001 Y187.565 E1.93535
G1 X67.535 Y187.565 E0.01673
G1 X23.370 Y143.400 E1.95901
G1 X23.370 Y142.867 E0.01673
G1 X68.068 Y187.565 E1.98267
G1 X68.601 Y187.565 E0.01673
G1 X23.370 Y142.334 E2.00633
G1 X23.370 Y141.800 E0.01673
G1 X69.135 Y187.565 E2.02999
G1 X69.668 Y187.565 E0.01673
G1 X23.370 Y141.267 E2.05365
G1 X23.370 Y140.733 E0.01673
G1 X70.202 Y187.565 E2.07731
G1 X70.735 Y187.565 E0.01673
G1 X23.370 Y140.200 E2.10097
G1 X23.370 Y139.666 E0.01673
G1 X71.269 Y187.565 E2.12463
G1 X71.802 Y187.565 E0.01673
G1 X23.370 Y139.133 E2.14830
G1 X23.370 Y138.599 E0.01673
G1 X72.335 Y187.565 E2.17196
G1 X72.869 Y187.565 E0.01673
G1 X23.370 Y138.066 E2.19562
G1 X23.370 Y137.532 E0.01673
G1 X73.402 Y187.565 E2.21928
G1 X73.936 Y187.565 E0.01673
G1 X23.370 Y136.999 E2.24294
G1 X23.370 Y136.466 E0.01673
G1 X74.469 Y187.565 E2.26660
G1 X75.003 Y187.565 E0.01673
G1 X23.370 Y135.932 E2.29026
G1 X23.370 Y135.399 E0.01673
G1 X75.536 Y187.565 E2.31392
M73 Q1 S464
M73 P1 R429
G1 X76.069 Y187.565 E0.01673
G1 X23.370 Y134.865 E2.33758
G1 X23.370 Y134.332 E0.01673
G1 X76.603 Y187.565 E2.36125
G1 X77.136 Y187.565 E0.01673
G1 X23.370 Y133.798 E2.38491
G1 X23.370 Y133.265 E0.01673
G1 X77.670 Y187.565 E2.40857
G1 X78.203 Y187.565 E0.01673
G1 X23.370 Y132.731 E2.43223
G1 X23.370 Y132.198 E0.01673
G1 X78.737 Y187.565 E2.45589
G1 X79.270 Y187.565 E0.01673
G1 X23.370 Y131.664 E2.47955
G1 X23.370 Y131.131 E0.01673
G1 X79.803 Y187.565 E2.50321
G1 X80.337 Y187.565 E0.01673
G1 X23.370 Y130.598 E2.52687
G1 X23.370 Y130.064 E0.01673
G1 X80.870 Y187.565 E2.55053
G1 X81.404 Y187.565 E0.01673
G1 X23.370 Y129.531 E2.57419
G1 X23.370 Y128.997 E0.01673
G1 X81.937 Y187.565 E2.59786
G1 X82.471 Y187.564 E0.01673
G1 X23.370 Y128.464 E2.62152
G1 X23.370 Y127.930 E0.01673
G1 X83.004 Y187.564 E2.64518
G1 X83.537 Y187.564 E0.01673
G1 X23.370 Y127.397 E2.66884
M73 Q1 S463
M73 P1 R428
G1 X23.370 Y126.863 E0.01673
G1 X84.071 Y187.564 E2.69250
G1 X84.604 Y187.564 E0.01673
G1 X23.370 Y126.330 E2.71616
G1 X23.370 Y125.797 E0.01673
G1 X85.138 Y187.564 E2.73982
G1 X85.671 Y187.564 E0.01673
G1 X23.370 Y125.263 E2.76348
G1 X23.370 Y124.730 E0.01673
G1 X86.205 Y187.564 E2.78714
G1 X86.738 Y187.564 E0.01673
G1 X23.370 Y124.196 E2.81081
G1 X23.370 Y123.663 E0.01673
G1 X87.271 Y187.564 E2.83447
G1 X87.805 Y187.564 E0.01673
G1 X23.370 Y123.129 E2.85813
G1 X23.370 Y122.596 E0.01673
G1 X88.338 Y187.564 E2.88179
G1 X88.872 Y187.564 E0.01673
G1 X23.370 Y122.062 E2.90545
G1 X23.370 Y121.529 E0.01673
G1 X89.405 Y187.564 E2.92911
G1 X89.939 Y187.564 E0.01673
G1 X23.370 Y120.995 E2.95277
G1 X23.370 Y120.462 E0.01673
G1 X90.472 Y187.564 E2.97643
G1 X91.005 Y187.564 E0.01673
G1 X23.370 Y119.929 E3.00009
M73 Q1 S462
M73 P1 R427
G1 X23.370 Y119.395 E0.01673
G1 X91.539 Y187.564 E3.02375
G1 X92.072 Y187.564 E0.01673
G1 X23.370 Y118.862 E3.04742
G1 X23.370 Y118.328 E0.01673
G1 X92.606 Y187.564 E3.07108
G1 X93.139 Y187.564 E0.01673
G1 X23.370 Y117.795 E3.09474
G1 X23.370 Y117.261 E0.01673
G1 X93.673 Y187.564 E3.11840
G1 X94.206 Y187.564 E0.01673
G1 X23.370 Y116.728 E3.14206
G1 X23.370 Y116.194 E0.01673
G1 X94.739 Y187.564 E3.16572
G1 X95.273 Y187.564 E0.01673
G1 X23.370 Y115.661 E3.18938
G1 X23.370 Y115.127 E0.01673
G1 X95.806 Y187.564 E3.21304
G1 X96.340 Y187.564 E0.01673
G1 X23.370 Y114.594 E3.23670
G1 X23.370 Y114.061 E0.01673
G1 X96.873 Y187.564 E3.26037
G1 X97.407 Y187.564 E0.01673
G1 X23.370 Y113.527 E3.28403
M73 Q1 S461
M73 P1 R426
G1 X23.370 Y112.994 E0.01673
G1 X97.940 Y187.564 E3.30769
G1 X98.473 Y187.564 E0.01673
G1 X23.370 Y112.460 E3.33135
G1 X23.370 Y111.927 E0.01673
G1 X99.007 Y187.564 E3.35501
G1 X99.540 Y187.564 E0.01673
G1 X23.370 Y111.393 E3.37867
G1 X23.370 Y110.860 E0.01673
G1 X100.074 Y187.564 E3.40233
G1 X100.607 Y187.564 E0.01673
G1 X23.370 Y110.326 E3.42599
G1 X23.370 Y109.793 E0.01673
G1 X101.140 Y187.564 E3.44965
G1 X101.674 Y187.564 E0.01673
G1 X23.370 Y109.259 E3.47332
G1 X23.370 Y108.726 E0.01673
G1 X102.207 Y187.564 E3.49698
G1 X102.741 Y187.563 E0.01673
G1 X23.370 Y108.193 E3.52064
G1 X23.370 Y107.659 E0.01673
G1 X103.274 Y187.563 E3.54430
M73 Q1 S460
M73 P2 R425
G1 X103.808 Y187.563 E0.01673
G1 X23.370 Y107.126 E3.56796
G1 X23.370 Y106.592 E0.01673
G1 X104.341 Y187.563 E3.59162
G1 X104.874 Y187.563 E0.01673
G1 X23.370 Y106.059 E3.61528
G1 X23.370 Y105.525 E0.01673
G1 X105.408 Y187.563 E3.63894
G1 X105.941 Y187.563 E0.01673
G1 X23.370 Y104.992 E3.66260
G1 X23.370 Y104.458 E0.01673
G1 X106.475 Y187.563 E3.68626
G1 X107.008 Y187.563 E0.01673
G1 X23.370 Y103.925 E3.70993
G1 X23.370 Y103.391 E0.01673
G1 X107.542 Y187.563 E3.73359
G1 X108.075 Y187.563 E0.01673
G1 X23.370 Y102.858 E3.75725
G1 X23.370 Y102.325 E0.01673
G1 X108.608 Y187.563 E3.78091
G1 X109.142 Y187.563 E0.01673
G1 X23.370 Y101.791 E3.80457
M73 Q2 S459
M73 P2 R424
G1 X23.370 Y101.258 E0.01673
G1 X109.675 Y187.563 E3.82823
G1 X110.209 Y187.563 E0.01673
G1 X23.370 Y100.724 E3.85189
G1 X23.370 Y100.191 E0.01673
G1 X110.742 Y187.563 E3.87555
G1 X111.276 Y187.563 E0.01673
G1 X23.370 Y99.657 E3.89921
G1 X23.370 Y99.124 E0.01673
G1 X111.809 Y187.563 E3.92288
G1 X112.342 Y187.563 E0.01673
G1 X23.370 Y98.590 E3.94654
G1 X23.370 Y98.057 E0.01673
G1 X112.876 Y187.563 E3.97020
G1 X113.409 Y187.563 E0.01673
G1 X23.370 Y97.524 E3.99386
G1 X23.370 Y96.990 E0.01673
G1 X113.943 Y187.563 E4.01752
G1 X114.476 Y187.563 E0.01673
G1 X23.370 Y96.457 E4.04118
M73 Q2 S458
M73 P2 R423
G1 X23.370 Y95.923 E0.01673
G1 X115.010 Y187.563 E4.06484
G1 X115.543 Y187.563 E0.01673
G1 X23.370 Y95.390 E4.08850
G1 X23.370 Y94.856 E0.01673
G1 X116.076 Y187.563 E4.11216
G1 X116.610 Y187.563 E0.01673
G1 X23.370 Y94.323 E4.13582
G1 X23.370 Y93.789 E0.01673
G1 X117.143 Y187.563 E4.15949
G1 X117.677 Y187.563 E0.01673
G1 X23.370 Y93.256 E4.18315
G1 X23.370 Y92.722 E0.01673
G1 X118.210 Y187.563 E4.20681
G1 X118.744 Y187.563 E0.01673
G1 X23.370 Y92.189 E4.23047
G1 X23.370 Y91.656 E0.01673
G1 X119.277 Y187.563 E4.25413
M73 Q2 S457
M73 P2 R422
G1 X119.810 Y187.563 E0.01673
G1 X23.370 Y91.122 E4.27779
G1 X23.370 Y90.589 E0.01673
G1 X120.344 Y187.563 E4.30145
G1 X120.877 Y187.563 E0.01673
G1 X23.370 Y90.055 E4.32511
G1 X23.370 Y89.522 E0.01673
G1 X121.411 Y187.563 E4.34877
G1 X121.944 Y187.563 E0.01673
G1 X23.370 Y88.988 E4.37244
G1 X23.370 Y88.455 E0.01673
G1 X122.478 Y187.562 E4.39610
G1 X123.011 Y187.562 E0.01673
G1 X23.370 Y87.921 E4.41976
G1 X23.370 Y87.388 E0.01673
G1 X123.544 Y187.562 E4.44342
G1 X124.078 Y187.562 E0.01673
G1 X23.370 Y86.854 E4.46708
M73 Q2 S456
M73 P3 R421
G1 X23.370 Y86.321 E0.01673
G1 X124.611 Y187.562 E4.49074
G1 X125.145 Y187.562 E0.01673
G1 X23.370 Y85.788 E4.51440
G1 X23.370 Y85.254 E0.01673
G1 X125.678 Y187.562 E4.53806
G1 X126.212 Y187.562 E0.01673
G1 X23.370 Y84.721 E4.56172
G1 X23.370 Y84.187 E0.01673
G1 X126.745 Y187.562 E4.58539
G1 X127.278 Y187.562 E0.01673
G1 X23.370 Y83.654 E4.60905
G1 X23.370 Y83.120 E0.01673
G1 X127.812 Y187.562 E4.63271
G1 X128.345 Y187.562 E0.01673
G1 X23.370 Y82.587 E4.65637
G1 X23.370 Y82.053 E0.01673
G1 X128.879 Y187.562 E4.68003
M73 Q3 S455
M73 P3 R419
G1 X129.412 Y187.562 E0.01673
G1 X23.370 Y81.520 E4.70369
G1 X23.370 Y80.986 E0.01673
G1 X129.946 Y187.562 E4.72735
G1 X130.479 Y187.562 E0.01673
G1 X23.370 Y80.453 E4.75101
G1 X23.370 Y79.920 E0.01673
G1 X131.012 Y187.562 E4.77467
G1 X131.546 Y187.562 E0.01673
G1 X23.370 Y79.386 E4.79833
G1 X23.370 Y78.853 E0.01673
G1 X132.079 Y187.562 E4.82200
G1 X132.613 Y187.562 E0.01673
G1 X23.370 Y78.319 E4.84566
G1 X23.370 Y77.786 E0.01673
G1 X133.146 Y187.562 E4.86932
M73 Q3 S454
M73 P3 R418
G1 X133.679 Y187.562 E0.01673
G1 X23.370 Y77.252 E4.89298
G1 X23.370 Y76.719 E0.01673
G1 X134.213 Y187.562 E4.91664
G1 X134.746 Y187.562 E0.01673
G1 X23.370 Y76.185 E4.94030
G1 X23.370 Y75.652 E0.01673
G1 X135.280 Y187.562 E4.96396
G1 X135.813 Y187.562 E0.01673
G1 X23.370 Y75.118 E4.98762
G1 X23.370 Y74.585 E0.01673
G1 X136.347 Y187.562 E5.01128
G1 X136.880 Y187.562 E0.01673
G1 X23.370 Y74.052 E5.03495
G1 X23.370 Y73.518 E0.01673
G1 X137.413 Y187.562 E5.05861
M73 Q3 S453
M73 P3 R417
G1 X137.947 Y187.562 E0.01673
G1 X23.370 Y72.985 E5.08227
G1 X23.370 Y72.451 E0.01673
G1 X138.480 Y187.562 E5.10593
G1 X139.014 Y187.562 E0.01673
G1 X23.370 Y71.918 E5.12959
G1 X23.370 Y71.384 E0.01673
G1 X139.547 Y187.562 E5.15325
