; generated by PrusaSlicer 2.0.0+ on 2019-06-09 at 02:16:52

; 

; external perimeters extrusion width = 0.45mm
; perimeters extrusion width = 0.45mm
; infill extrusion width = 0.45mm
; solid infill extrusion width = 0.45mm
; top infill extrusion width = 0.40mm
; first layer extrusion width = 0.42mm

M73 P0 R352
M73 Q0 S373
M201 X1000 Y1000 Z1000 E5000 ; sets maximum accelerations, mm/sec^2
M203 X200 Y200 Z12 E120 ; sets maximum feedrates, mm/sec
M204 P1250 R1250 T1250 ; sets acceleration (P, T) and retract acceleration (R), mm/sec^2
M205 X8.00 Y8.00 Z0.40 E1.50 ; sets the jerk limits, mm/sec
M205 S0 T0 ; sets the minimum extruding and travel feed rate, mm/sec
M107
M115 U3.7.1 ; tell printer latest fw version
G90 ; use absolute coordinates
M83 ; extruder relative mode
M104 S215 ; set extruder temp
M140 S60 ; set bed temp
M190 S60 ; wait for bed temp
M109 S215 ; wait for extruder temp
G28 W ; home all without mesh bed level
G80 ; mesh bed leveling
G1 Y-3.0 F1000.0 ; go outside print area
G92 E0.0
G1 X60.0 E9.0 F1000.0 ; intro line
M73 Q0 S373
M73 P0 R352
G1 X100.0 E12.5 F1000.0 ; intro line
G92 E0.0
M221 S95
M900 K30 ; Filament gcode
G21 ; set units to millimeters
G90 ; use absolute coordinates
M83 ; use relative distances for extrusion
;BEFORE_LAYER_CHANGE
G92 E0.0
;0.2


G1 E-0.80000 F2100.00000
G1 Z0.600 F10800.000
;AFTER_LAYER_CHANGE
;0.2
G1 X34.353 Y33.337
G1 Z0.200
G1 E0.80000 F2100.00000
M204 S1000
G1 F1200
G1 X35.094 Y33.206 E0.02360
G1 X214.923 Y33.206 E5.63841
G1 X215.419 Y33.268 E0.01567
G1 X216.059 Y33.538 E0.02179
G1 X216.583 Y33.995 E0.02179
G1 X216.937 Y34.594 E0.02179
G1 X217.085 Y35.277 E0.02191
G1 X217.089 Y177.461 E4.45809
G1 X217.034 Y177.936 E0.01498
G1 X216.879 Y178.384 E0.01487
G1 X216.629 Y178.791 E0.01498
G1 X216.300 Y179.132 E0.01487
G1 X215.647 Y179.507 E0.02360
G1 X214.906 Y179.639 E0.02360
G1 X35.096 Y179.639 E5.63780
G1 X34.621 Y179.586 E0.01498
G1 X34.169 Y179.431 E0.01498
G1 X33.762 Y179.182 E0.01498
G1 X33.418 Y178.850 E0.01498
G1 X33.043 Y178.197 E0.02360
G1 X32.911 Y177.456 E0.02360
G1 X32.911 Y35.391 E4.45435
G1 X32.964 Y34.916 E0.01498
G1 X33.119 Y34.464 E0.01498
G1 X33.368 Y34.056 E0.01498
G1 X33.700 Y33.712 E0.01498
G1 X34.301 Y33.367 E0.02172
G1 F8640
G1 X35.094 Y33.206 E-0.18691
G1 X37.576 Y33.206 E-0.57309
G1 E-0.04000 F2100.00000
G1 Z0.800 F10800.000
G1 X35.687 Y37.195
G1 Z0.200
G1 E0.80000 F2100.00000
G1 F1200
G1 X43.063 Y37.179 E0.23127
G1 X48.930 Y37.198 E0.18395
G1 X201.070 Y37.198 E4.77026
G1 X206.937 Y37.179 E0.18395
G1 X214.313 Y37.195 E0.23127
G1 X214.313 Y176.863 E4.37918
G1 X35.687 Y176.863 E5.60069
M73 Q0 S372
M73 P0 R351
G1 X35.687 Y37.255 E4.37729
G1 X35.310 Y36.819 F10800.000
G1 F1200
G1 X43.063 Y36.802 E0.24309
G1 X48.930 Y36.821 E0.18397
G1 X201.070 Y36.821 E4.77022
G1 X206.937 Y36.802 E0.18397
G1 X214.690 Y36.819 E0.24309
G1 X214.690 Y177.240 E4.40280
G1 X35.310 Y177.240 E5.62433
G1 X35.310 Y36.879 E4.40091
G1 X35.700 Y36.906 F10800.000
G1 F8640
G1 X38.601 Y36.846 E-0.76000
G1 E-0.04000 F2100.00000
G1 Z0.800 F10800.000
G1 X36.563 Y176.750
G1 Z0.200
G1 E0.80000 F2100.00000
G1 F1200
G1 X35.970 Y176.157 E0.02632
G1 X35.970 Y175.623 E0.01673
G1 X36.927 Y176.580 E0.04245
G1 X37.460 Y176.580 E0.01673
G1 X35.970 Y175.090 E0.06611
G1 X35.970 Y174.556 E0.01673
G1 X37.994 Y176.580 E0.08977
G1 X38.527 Y176.580 E0.01673
G1 X35.970 Y174.023 E0.11343
G1 X35.970 Y173.489 E0.01673
G1 X39.061 Y176.580 E0.13708
G1 X39.594 Y176.580 E0.01673
G1 X35.970 Y172.956 E0.16074
G1 X35.970 Y172.423 E0.01673
G1 X40.127 Y176.580 E0.18440
G1 X40.661 Y176.580 E0.01673
G1 X35.970 Y171.889 E0.20806
G1 X35.970 Y171.356 E0.01673
G1 X41.194 Y176.580 E0.23172
G1 X41.728 Y176.580 E0.01673
G1 X35.970 Y170.822 E0.25538
G1 X35.970 Y170.289 E0.01673
G1 X42.261 Y176.580 E0.27904
G1 X42.794 Y176.580 E0.01673
G1 X35.970 Y169.756 E0.30270
G1 X35.970 Y169.222 E0.01673
G1 X43.328 Y176.580 E0.32636
G1 X43.861 Y176.580 E0.01673
G1 X35.970 Y168.689 E0.35002
G1 X35.970 Y168.155 E0.01673
G1 X44.395 Y176.580 E0.37367
G1 X44.928 Y176.580 E0.01673
G1 X35.970 Y167.622 E0.39733
G1 X35.970 Y167.088 E0.01673
G1 X45.462 Y176.580 E0.42099
G1 X45.995 Y176.580 E0.01673
G1 X35.970 Y166.555 E0.44465
G1 X35.970 Y166.022 E0.01673
G1 X46.528 Y176.580 E0.46831
G1 X47.062 Y176.580 E0.01673
G1 X35.970 Y165.488 E0.49197
G1 X35.970 Y164.955 E0.01673
G1 X47.595 Y176.580 E0.51563
G1 X48.129 Y176.580 E0.01673
G1 X35.970 Y164.421 E0.53929
G1 X35.970 Y163.888 E0.01673
G1 X48.662 Y176.580 E0.56295
G1 X49.195 Y176.580 E0.01673
G1 X35.970 Y163.355 E0.58661
G1 X35.970 Y162.821 E0.01673
G1 X49.729 Y176.580 E0.61026
G1 X50.262 Y176.580 E0.01673
G1 X35.970 Y162.288 E0.63392
G1 X35.970 Y161.754 E0.01673
G1 X50.796 Y176.580 E0.65758
G1 X51.329 Y176.580 E0.01673
G1 X35.970 Y161.221 E0.68124
G1 X35.970 Y160.687 E0.01673
G1 X51.863 Y176.580 E0.70490
G1 X52.396 Y176.580 E0.01673
G1 X35.970 Y160.154 E0.72856
M73 Q0 S371
G1 X35.970 Y159.621 E0.01673
G1 X52.929 Y176.580 E0.75222
M73 P0 R350
G1 X53.463 Y176.580 E0.01673
G1 X35.970 Y159.087 E0.77588
G1 X35.970 Y158.554 E0.01673
G1 X53.996 Y176.580 E0.79954
G1 X54.530 Y176.580 E0.01673
G1 X35.970 Y158.020 E0.82320
G1 X35.970 Y157.487 E0.01673
G1 X55.063 Y176.580 E0.84685
G1 X55.596 Y176.580 E0.01673
G1 X35.970 Y156.954 E0.87051
G1 X35.970 Y156.420 E0.01673
G1 X56.130 Y176.580 E0.89417
G1 X56.663 Y176.580 E0.01673
G1 X35.970 Y155.887 E0.91783
G1 X35.970 Y155.353 E0.01673
G1 X57.197 Y176.580 E0.94149
G1 X57.730 Y176.580 E0.01673
G1 X35.970 Y154.820 E0.96515
G1 X35.970 Y154.286 E0.01673
G1 X58.264 Y176.580 E0.98881
G1 X58.797 Y176.580 E0.01673
G1 X35.970 Y153.753 E1.01247
G1 X35.970 Y153.220 E0.01673
G1 X59.330 Y176.580 E1.03613
G1 X59.864 Y176.580 E0.01673
G1 X35.970 Y152.686 E1.05978
G1 X35.970 Y152.153 E0.01673
G1 X60.397 Y176.580 E1.08344
G1 X60.931 Y176.580 E0.01673
G1 X35.970 Y151.619 E1.10710
G1 X35.970 Y151.086 E0.01673
G1 X61.464 Y176.580 E1.13076
G1 X61.997 Y176.580 E0.01673
G1 X35.970 Y150.553 E1.15442
G1 X35.970 Y150.019 E0.01673
G1 X62.531 Y176.580 E1.17808
G1 X63.064 Y176.580 E0.01673
G1 X35.970 Y149.486 E1.20174
G1 X35.970 Y148.952 E0.01673
G1 X63.598 Y176.580 E1.22540
G1 X64.131 Y176.580 E0.01673
G1 X35.970 Y148.419 E1.24906
G1 X35.970 Y147.885 E0.01673
G1 X64.665 Y176.580 E1.27272
G1 X65.198 Y176.580 E0.01673
G1 X35.970 Y147.352 E1.29637
G1 X35.970 Y146.819 E0.01673
G1 X65.731 Y176.580 E1.32003
G1 X66.265 Y176.580 E0.01673
G1 X35.970 Y146.285 E1.34369
G1 X35.970 Y145.752 E0.01673
G1 X66.798 Y176.580 E1.36735
G1 X67.332 Y176.580 E0.01673
G1 X35.970 Y145.218 E1.39101
G1 X35.970 Y144.685 E0.01673
G1 X67.865 Y176.580 E1.41467
G1 X68.398 Y176.580 E0.01673
G1 X35.970 Y144.152 E1.43833
G1 X35.970 Y143.618 E0.01673
G1 X68.932 Y176.580 E1.46199
G1 X69.465 Y176.580 E0.01673
G1 X35.970 Y143.085 E1.48565
G1 X35.970 Y142.551 E0.01673
G1 X69.999 Y176.580 E1.50931
M73 Q0 S370
G1 X70.532 Y176.580 E0.01673
G1 X35.970 Y142.018 E1.53296
M73 P0 R349
G1 X35.970 Y141.484 E0.01673
G1 X71.066 Y176.580 E1.55662
G1 X71.599 Y176.580 E0.01673
G1 X35.970 Y140.951 E1.58028
G1 X35.970 Y140.418 E0.01673
G1 X72.132 Y176.580 E1.60394
G1 X72.666 Y176.580 E0.01673
G1 X35.970 Y139.884 E1.62760
G1 X35.970 Y139.351 E0.01673
G1 X73.199 Y176.580 E1.65126
G1 X73.733 Y176.580 E0.01673
G1 X35.970 Y138.817 E1.67492
G1 X35.970 Y138.284 E0.01673
G1 X74.266 Y176.580 E1.69858
G1 X74.799 Y176.580 E0.01673
G1 X35.970 Y137.751 E1.72224
G1 X35.970 Y137.217 E0.01673
G1 X75.333 Y176.580 E1.74590
G1 X75.866 Y176.580 E0.01673
G1 X35.970 Y136.684 E1.76955
G1 X35.970 Y136.150 E0.01673
G1 X76.400 Y176.580 E1.79321
G1 X76.933 Y176.580 E0.01673
G1 X35.970 Y135.617 E1.81687
G1 X35.970 Y135.083 E0.01673
G1 X77.467 Y176.580 E1.84053
G1 X78.000 Y176.580 E0.01673
G1 X35.970 Y134.550 E1.86419
G1 X35.970 Y134.017 E0.01673
G1 X78.533 Y176.580 E1.88785
G1 X79.067 Y176.580 E0.01673
G1 X35.970 Y133.483 E1.91151
G1 X35.970 Y132.950 E0.01673
G1 X79.600 Y176.580 E1.93517
G1 X80.134 Y176.580 E0.01673
G1 X35.970 Y132.416 E1.95883
G1 X35.970 Y131.883 E0.01673
G1 X80.667 Y176.580 E1.98248
G1 X81.200 Y176.580 E0.01673
G1 X35.970 Y131.350 E2.00614
M73 Q1 S369
G1 X35.970 Y130.816 E0.01673
G1 X81.734 Y176.580 E2.02980
M73 P1 R348
G1 X82.267 Y176.580 E0.01673
G1 X35.970 Y130.283 E2.05346
G1 X35.970 Y129.749 E0.01673
G1 X82.801 Y176.580 E2.07712
G1 X83.334 Y176.580 E0.01673
G1 X35.970 Y129.216 E2.10078
G1 X35.970 Y128.682 E0.01673
G1 X83.868 Y176.580 E2.12444
G1 X84.401 Y176.580 E0.01673
G1 X35.970 Y128.149 E2.14810
G1 X35.970 Y127.616 E0.01673
G1 X84.934 Y176.580 E2.17176
G1 X85.468 Y176.580 E0.01673
G1 X35.970 Y127.082 E2.19542
G1 X35.970 Y126.549 E0.01673
G1 X86.001 Y176.580 E2.21907
G1 X86.535 Y176.580 E0.01673
G1 X35.970 Y126.015 E2.24273
G1 X35.970 Y125.482 E0.01673
G1 X87.068 Y176.580 E2.26639
G1 X87.601 Y176.580 E0.01673
G1 X35.970 Y124.949 E2.29005
G1 X35.970 Y124.415 E0.01673
G1 X88.135 Y176.580 E2.31371
G1 X88.668 Y176.580 E0.01673
G1 X35.970 Y123.882 E2.33737
G1 X35.970 Y123.348 E0.01673
G1 X89.202 Y176.580 E2.36103
G1 X89.735 Y176.580 E0.01673
G1 X35.970 Y122.815 E2.38469
G1 X35.970 Y122.281 E0.01673
G1 X90.269 Y176.580 E2.40835
M73 Q1 S368
G1 X90.802 Y176.580 E0.01673
G1 X35.970 Y121.748 E2.43201
M73 P1 R347
G1 X35.970 Y121.215 E0.01673
G1 X91.335 Y176.580 E2.45566
G1 X91.869 Y176.580 E0.01673
G1 X35.970 Y120.681 E2.47932
G1 X35.970 Y120.148 E0.01673
G1 X92.402 Y176.580 E2.50298
G1 X92.936 Y176.580 E0.01673
G1 X35.970 Y119.614 E2.52664
G1 X35.970 Y119.081 E0.01673
G1 X93.469 Y176.580 E2.55030
G1 X94.002 Y176.580 E0.01673
G1 X35.970 Y118.548 E2.57396
G1 X35.970 Y118.014 E0.01673
G1 X94.536 Y176.580 E2.59762
G1 X95.069 Y176.580 E0.01673
G1 X35.970 Y117.481 E2.62128
G1 X35.970 Y116.947 E0.01673
G1 X95.603 Y176.580 E2.64494
G1 X96.136 Y176.580 E0.01673
G1 X35.970 Y116.414 E2.66860
G1 X35.970 Y115.881 E0.01673
G1 X96.670 Y176.580 E2.69225
G1 X97.203 Y176.580 E0.01673
G1 X35.970 Y115.347 E2.71591
G1 X35.970 Y114.814 E0.01673
G1 X97.736 Y176.580 E2.73957
G1 X98.270 Y176.580 E0.01673
G1 X35.970 Y114.280 E2.76323
M73 Q1 S367
G1 X35.970 Y113.747 E0.01673
G1 X98.803 Y176.580 E2.78689
M73 P1 R346
G1 X99.337 Y176.580 E0.01673
G1 X35.970 Y113.213 E2.81055
G1 X35.970 Y112.680 E0.01673
G1 X99.870 Y176.580 E2.83421
G1 X100.403 Y176.580 E0.01673
G1 X35.970 Y112.147 E2.85787
G1 X35.970 Y111.613 E0.01673
G1 X100.937 Y176.580 E2.88153
G1 X101.470 Y176.580 E0.01673
G1 X35.970 Y111.080 E2.90519
G1 X35.970 Y110.546 E0.01673
G1 X102.004 Y176.580 E2.92884
G1 X102.537 Y176.580 E0.01673
G1 X35.970 Y110.013 E2.95250
G1 X35.970 Y109.480 E0.01673
G1 X103.070 Y176.580 E2.97616
G1 X103.604 Y176.580 E0.01673
G1 X35.970 Y108.946 E2.99982
G1 X35.970 Y108.413 E0.01673
G1 X104.137 Y176.580 E3.02348
G1 X104.671 Y176.580 E0.01673
G1 X35.970 Y107.879 E3.04714
G1 X35.970 Y107.346 E0.01673
G1 X105.204 Y176.580 E3.07080
M73 Q1 S366
G1 X105.738 Y176.580 E0.01673
G1 X35.970 Y106.812 E3.09446
M73 P2 R345
G1 X35.970 Y106.279 E0.01673
G1 X106.271 Y176.580 E3.11812
G1 X106.804 Y176.580 E0.01673
G1 X35.970 Y105.746 E3.14177
G1 X35.970 Y105.212 E0.01673
G1 X107.338 Y176.580 E3.16543
G1 X107.871 Y176.580 E0.01673
G1 X35.970 Y104.679 E3.18909
G1 X35.970 Y104.145 E0.01673
G1 X108.405 Y176.580 E3.21275
G1 X108.938 Y176.580 E0.01673
G1 X35.970 Y103.612 E3.23641
G1 X35.970 Y103.079 E0.01673
G1 X109.471 Y176.580 E3.26007
G1 X110.005 Y176.580 E0.01673
G1 X35.970 Y102.545 E3.28373
G1 X35.970 Y102.012 E0.01673
G1 X110.538 Y176.580 E3.30739
G1 X111.072 Y176.580 E0.01673
G1 X35.970 Y101.478 E3.33105
G1 X35.970 Y100.945 E0.01673
G1 X111.605 Y176.580 E3.35471
M73 Q2 S365
G1 X112.139 Y176.580 E0.01673
G1 X35.970 Y100.411 E3.37836
M73 P2 R344
G1 X35.970 Y99.878 E0.01673
G1 X112.672 Y176.580 E3.40202
G1 X113.205 Y176.580 E0.01673
G1 X35.970 Y99.345 E3.42568
G1 X35.970 Y98.811 E0.01673
G1 X113.739 Y176.580 E3.44934
G1 X114.272 Y176.580 E0.01673
G1 X35.970 Y98.278 E3.47300
G1 X35.970 Y97.744 E0.01673
G1 X114.806 Y176.580 E3.49666
G1 X115.339 Y176.580 E0.01673
G1 X35.970 Y97.211 E3.52032
G1 X35.970 Y96.678 E0.01673
G1 X115.872 Y176.580 E3.54398
G1 X116.406 Y176.580 E0.01673
G1 X35.970 Y96.144 E3.56764
G1 X35.970 Y95.611 E0.01673
G1 X116.939 Y176.580 E3.59130
G1 X117.473 Y176.580 E0.01673
G1 X35.970 Y95.077 E3.61495
M73 Q2 S364
G1 X35.970 Y94.544 E0.01673
G1 X118.006 Y176.580 E3.63861
M73 P2 R343
G1 X118.540 Y176.580 E0.01673
G1 X35.970 Y94.010 E3.66227
G1 X35.970 Y93.477 E0.01673
G1 X119.073 Y176.580 E3.68593
G1 X119.606 Y176.580 E0.01673
G1 X35.970 Y92.944 E3.70959
G1 X35.970 Y92.410 E0.01673
G1 X120.140 Y176.580 E3.73325
G1 X120.673 Y176.580 E0.01673
G1 X35.970 Y91.877 E3.75691
G1 X35.970 Y91.343 E0.01673
G1 X121.207 Y176.580 E3.78057
G1 X121.740 Y176.580 E0.01673
G1 X35.970 Y90.810 E3.80423
G1 X35.970 Y90.277 E0.01673
G1 X122.273 Y176.580 E3.82789
G1 X122.807 Y176.580 E0.01673
G1 X35.970 Y89.743 E3.85154
M73 Q2 S363
G1 X35.970 Y89.210 E0.01673
G1 X123.340 Y176.580 E3.87520
M73 P2 R342
G1 X123.874 Y176.580 E0.01673
G1 X35.970 Y88.676 E3.89886
G1 X35.970 Y88.143 E0.01673
G1 X124.407 Y176.580 E3.92252
G1 X124.941 Y176.580 E0.01673
G1 X35.970 Y87.609 E3.94618
G1 X35.970 Y87.076 E0.01673
G1 X125.474 Y176.580 E3.96984
G1 X126.007 Y176.580 E0.01673
G1 X35.970 Y86.543 E3.99350
G1 X35.970 Y86.009 E0.01673
G1 X126.541 Y176.580 E4.01716
G1 X127.074 Y176.580 E0.01673
G1 X35.970 Y85.476 E4.04082
G1 X35.970 Y84.942 E0.01673
G1 X127.608 Y176.580 E4.06447
G1 X128.141 Y176.580 E0.01673
G1 X35.970 Y84.409 E4.08813
M73 Q3 S362
G1 X35.970 Y83.876 E0.01673
G1 X128.674 Y176.580 E4.11179
M73 P3 R340
G1 X129.208 Y176.580 E0.01673
G1 X35.970 Y83.342 E4.13545
G1 X35.970 Y82.809 E0.01673
G1 X129.741 Y176.580 E4.15911
G1 X130.275 Y176.580 E0.01673
G1 X35.970 Y82.275 E4.18277
G1 X35.970 Y81.742 E0.01673
G1 X130.808 Y176.580 E4.20643
G1 X131.342 Y176.580 E0.01673
G1 X35.970 Y81.208 E4.23009
G1 X35.970 Y80.675 E0.01673
G1 X131.875 Y176.580 E4.25375
G1 X132.408 Y176.580 E0.01673
G1 X35.970 Y80.142 E4.27741
G1 X35.970 Y79.608 E0.01673
G1 X132.942 Y176.580 E4.30106
M73 Q3 S361
G1 X133.475 Y176.580 E0.01673
G1 X35.970 Y79.075 E4.32472
M73 P3 R339
G1 X35.970 Y78.541 E0.01673
G1 X134.009 Y176.580 E4.34838
G1 X134.542 Y176.580 E0.01673
G1 X35.970 Y78.008 E4.37204
G1 X35.970 Y77.475 E0.01673
G1 X135.075 Y176.580 E4.39570
G1 X135.609 Y176.580 E0.01673
G1 X35.970 Y76.941 E4.41936
G1 X35.970 Y76.408 E0.01673
G1 X136.142 Y176.580 E4.44302
G1 X136.676 Y176.580 E0.01673
G1 X35.970 Y75.874 E4.46668
G1 X35.970 Y75.341 E0.01673
G1 X137.209 Y176.580 E4.49034
G1 X137.743 Y176.580 E0.01673
G1 X35.970 Y74.807 E4.51400
M73 Q3 S360
G1 X35.970 Y74.274 E0.01673
G1 X138.276 Y176.580 E4.53765
M73 P3 R338
G1 X138.809 Y176.580 E0.01673
G1 X35.970 Y73.741 E4.56131
G1 X35.970 Y73.207 E0.01673
G1 X139.343 Y176.580 E4.58497
G1 X139.876 Y176.580 E0.01673
G1 X35.970 Y72.674 E4.60863
G1 X35.970 Y72.140 E0.01673
G1 X140.410 Y176.580 E4.63229
G1 X140.943 Y176.580 E0.01673
G1 X35.970 Y71.607 E4.65595
G1 X35.970 Y71.074 E0.01673
G1 X141.476 Y176.580 E4.67961
G1 X142.010 Y176.580 E0.01673
G1 X35.970 Y70.540 E4.70327
G1 X35.970 Y70.007 E0.01673
G1 X142.543 Y176.580 E4.72693
M73 Q3 S358
G1 X143.077 Y176.580 E0.01673
G1 X35.970 Y69.473 E4.75059
M73 P4 R337
G1 X35.970 Y68.940 E0.01673
G1 X143.610 Y176.580 E4.77424
G1 X144.144 Y176.580 E0.01673
G1 X35.970 Y68.406 E4.79790
G1 X35.970 Y67.873 E0.01673
G1 X144.677 Y176.580 E4.82156
G1 X145.210 Y176.580 E0.01673
G1 X35.970 Y67.340 E4.84522
G1 X35.970 Y66.806 E0.01673
G1 X145.744 Y176.580 E4.86888
G1 X146.277 Y176.580 E0.01673
G1 X35.970 Y66.273 E4.89254
G1 X35.970 Y65.739 E0.01673
G1 X146.811 Y176.580 E4.91620
M73 Q4 S357
G1 X147.344 Y176.580 E0.01673
G1 X35.970 Y65.206 E4.93986
M73 P4 R336
G1 X35.970 Y64.673 E0.01673
G1 X147.877 Y176.580 E4.96352
G1 X148.411 Y176.580 E0.01673
G1 X35.970 Y64.139 E4.98717
G1 X35.970 Y63.606 E0.01673
G1 X148.944 Y176.580 E5.01083
G1 X149.478 Y176.580 E0.01673
G1 X35.970 Y63.072 E5.03449
G1 X35.970 Y62.539 E0.01673
G1 X150.011 Y176.580 E5.05815
G1 X150.545 Y176.580 E0.01673
G1 X35.970 Y62.005 E5.08181
G1 X35.970 Y61.472 E0.01673
G1 X151.078 Y176.580 E5.10547
M73 Q4 S356
G1 X151.611 Y176.580 E0.01673
