; generated by PrusaSlicer 2.0.0+ on 2019-06-08 at 18:28:23

; 

; external perimeters extrusion width = 0.45mm
; perimeters extrusion width = 0.45mm
; infill extrusion width = 0.45mm
; solid infill extrusion width = 0.45mm
; top infill extrusion width = 0.40mm
; first layer extrusion width = 0.42mm

M73 P0 R434
M73 Q0 S467
M201 X1000 Y1000 Z1000 E5000 ; sets maximum accelerations, mm/sec^2
M203 X200 Y200 Z12 E120 ; sets maximum feedrates, mm/sec
M204 P1250 R1250 T1250 ; sets acceleration (P, T) and retract acceleration (R), mm/sec^2
M205 X8.00 Y8.00 Z0.40 E1.50 ; sets the jerk limits, mm/sec
M205 S0 T0 ; sets the minimum extruding and travel feed rate, mm/sec
M107
M115 U3.7.1 ; tell printer latest fw version
G90 ; use absolute coordinates
M83 ; extruder relative mode
M104 S215 ; set extruder temp
M140 S60 ; set bed temp
M190 S60 ; wait for bed temp
M109 S215 ; wait for extruder temp
G28 W ; home all without mesh bed level
G80 ; mesh bed leveling
G1 Y-3.0 F1000.0 ; go outside print area
G92 E0.0
G1 X60.0 E9.0 F1000.0 ; intro line
M73 Q0 S467
M73 P0 R434
G1 X100.0 E12.5 F1000.0 ; intro line
G92 E0.0
M221 S95
M900 K30 ; Filament gcode
G21 ; set units to millimeters
G90 ; use absolute coordinates
M83 ; use relative distances for extrusion
;BEFORE_LAYER_CHANGE
G92 E0.0
;0.2


G1 E-0.80000 F2100.00000
G1 Z0.600 F10800.000
;AFTER_LAYER_CHANGE
;0.2
G1 X25.491 Y19.517
G1 Z0.200
G1 E0.80000 F2100.00000
M204 S1000
G1 F1200
G1 X26.002 Y18.790 E0.02788
G1 X26.691 Y18.351 E0.02563
G1 X27.494 Y18.196 E0.02563
G1 X213.098 Y18.188 E5.81949
G1 X217.672 Y18.203 E0.14340
G1 X218.500 Y18.312 E0.02618
G1 X219.481 Y18.688 E0.03295
G1 X220.527 Y19.441 E0.04041
G1 X221.246 Y20.361 E0.03661
G1 X221.726 Y21.507 E0.03897
G1 X221.851 Y22.448 E0.02975
G1 X221.854 Y192.457 E5.33053
G1 X221.672 Y193.324 E0.02777
G1 X221.164 Y194.045 E0.02766
G1 X220.474 Y194.484 E0.02563
G1 X219.671 Y194.639 E0.02563
G1 X27.500 Y194.639 E6.02539
G1 X26.633 Y194.459 E0.02777
G1 X25.905 Y193.948 E0.02788
G1 X25.466 Y193.259 E0.02563
G1 X25.311 Y192.456 E0.02563
G1 X25.311 Y20.385 E5.39517
G1 X25.479 Y19.576 E0.02589
G1 F8640
G1 X26.002 Y18.790 E-0.21810
G1 X26.691 Y18.351 E-0.18876
G1 X27.494 Y18.196 E-0.18876
G1 X28.206 Y18.196 E-0.16437
G1 E-0.04000 F2100.00000
G1 Z0.800 F10800.000
G1 X28.087 Y22.197
G1 Z0.200
G1 E0.80000 F2100.00000
G1 F1200
G1 X38.825 Y22.153 E0.33668
G1 X42.114 Y22.173 E0.10312
G1 X202.886 Y22.173 E5.04092
G1 X206.175 Y22.153 E0.10312
G1 X217.471 Y22.200 E0.35416
G1 X217.511 Y22.204 E0.00126
G1 X217.728 Y22.322 E0.00776
G1 X217.846 Y22.539 E0.00776
G1 X217.850 Y22.579 E0.00126
G1 X217.897 Y34.518 E0.37433
G1 X217.877 Y37.994 E0.10898
G1 X217.877 Y177.006 E4.35864
G1 X217.897 Y180.482 E0.10898
G1 X217.853 Y191.863 E0.35685
G1 X28.087 Y191.863 E5.94996
M73 Q0 S466
M73 P0 R432
G1 X28.087 Y22.257 E5.31786
G1 X27.710 Y21.822 F10800.000
G1 F1200
G1 X38.825 Y21.776 E0.34851
G1 X42.115 Y21.796 E0.10314
G1 X202.885 Y21.796 E5.04085
G1 X206.175 Y21.776 E0.10314
G1 X217.489 Y21.823 E0.35477
G1 X217.624 Y21.836 E0.00423
G1 X218.005 Y22.045 E0.01364
G1 X218.214 Y22.426 E0.01364
G1 X218.227 Y22.561 E0.00423
G1 X218.274 Y34.518 E0.37493
G1 X218.254 Y37.995 E0.10900
G1 X218.254 Y177.005 E4.35857
G1 X218.274 Y180.482 E0.10900
G1 X218.228 Y192.240 E0.36868
G1 X27.710 Y192.240 E5.97356
G1 X27.710 Y21.882 E5.34146
G1 X28.098 Y21.917 F10800.000
G1 F8640
G1 X31.001 Y21.851 E-0.76000
G1 E-0.04000 F2100.00000
G1 Z0.800 F10800.000
G1 X28.964 Y191.750
G1 Z0.200
G1 E0.80000 F2100.00000
G1 F1200
G1 X28.370 Y191.155 E0.02639
G1 X28.370 Y190.621 E0.01677
G1 X29.329 Y191.580 E0.04257
G1 X29.863 Y191.580 E0.01677
G1 X28.370 Y190.087 E0.06628
G1 X28.370 Y189.553 E0.01677
G1 X30.397 Y191.580 E0.08999
G1 X30.931 Y191.580 E0.01677
G1 X28.370 Y189.019 E0.11370
G1 X28.370 Y188.485 E0.01677
G1 X31.465 Y191.580 E0.13741
G1 X31.999 Y191.580 E0.01677
G1 X28.370 Y187.951 E0.16113
G1 X28.370 Y187.417 E0.01677
G1 X32.533 Y191.580 E0.18484
G1 X33.067 Y191.580 E0.01677
G1 X28.370 Y186.883 E0.20855
G1 X28.370 Y186.349 E0.01677
G1 X33.601 Y191.580 E0.23226
G1 X34.135 Y191.580 E0.01677
G1 X28.370 Y185.815 E0.25597
G1 X28.370 Y185.281 E0.01677
G1 X34.669 Y191.580 E0.27968
G1 X35.203 Y191.580 E0.01677
G1 X28.370 Y184.747 E0.30339
G1 X28.370 Y184.213 E0.01677
G1 X35.737 Y191.580 E0.32711
G1 X36.271 Y191.580 E0.01677
G1 X28.370 Y183.679 E0.35082
G1 X28.370 Y183.145 E0.01677
G1 X36.805 Y191.580 E0.37453
G1 X37.339 Y191.580 E0.01677
G1 X28.370 Y182.611 E0.39824
G1 X28.370 Y182.077 E0.01677
G1 X37.873 Y191.580 E0.42195
G1 X38.407 Y191.580 E0.01677
G1 X28.370 Y181.543 E0.44566
G1 X28.370 Y181.009 E0.01677
G1 X38.941 Y191.580 E0.46937
G1 X39.475 Y191.580 E0.01677
G1 X28.370 Y180.475 E0.49309
G1 X28.370 Y179.941 E0.01677
G1 X40.009 Y191.580 E0.51680
G1 X40.543 Y191.580 E0.01677
G1 X28.370 Y179.407 E0.54051
G1 X28.370 Y178.873 E0.01677
G1 X41.077 Y191.580 E0.56422
G1 X41.611 Y191.580 E0.01677
G1 X28.370 Y178.339 E0.58793
G1 X28.370 Y177.805 E0.01677
G1 X42.145 Y191.580 E0.61164
M73 Q0 S465
M73 P0 R431
G1 X42.679 Y191.580 E0.01677
G1 X28.370 Y177.271 E0.63535
G1 X28.370 Y176.737 E0.01677
G1 X43.213 Y191.580 E0.65907
G1 X43.747 Y191.580 E0.01677
G1 X28.370 Y176.203 E0.68278
G1 X28.370 Y175.669 E0.01677
G1 X44.281 Y191.580 E0.70649
G1 X44.815 Y191.580 E0.01677
G1 X28.370 Y175.135 E0.73020
G1 X28.370 Y174.601 E0.01677
G1 X45.349 Y191.580 E0.75391
G1 X45.883 Y191.580 E0.01677
G1 X28.370 Y174.067 E0.77762
G1 X28.370 Y173.533 E0.01677
G1 X46.417 Y191.580 E0.80133
G1 X46.951 Y191.580 E0.01677
G1 X28.370 Y172.999 E0.82505
G1 X28.370 Y172.465 E0.01677
G1 X47.485 Y191.580 E0.84876
G1 X48.019 Y191.580 E0.01677
G1 X28.370 Y171.931 E0.87247
G1 X28.370 Y171.397 E0.01677
G1 X48.553 Y191.580 E0.89618
G1 X49.087 Y191.580 E0.01677
G1 X28.370 Y170.863 E0.91989
G1 X28.370 Y170.329 E0.01677
G1 X49.621 Y191.580 E0.94360
G1 X50.155 Y191.580 E0.01677
G1 X28.370 Y169.795 E0.96731
G1 X28.370 Y169.261 E0.01677
G1 X50.689 Y191.580 E0.99103
G1 X51.223 Y191.580 E0.01677
G1 X28.370 Y168.727 E1.01474
G1 X28.370 Y168.193 E0.01677
G1 X51.757 Y191.580 E1.03845
G1 X52.291 Y191.580 E0.01677
G1 X28.370 Y167.659 E1.06216
G1 X28.370 Y167.125 E0.01677
G1 X52.825 Y191.580 E1.08587
G1 X53.359 Y191.580 E0.01677
G1 X28.370 Y166.591 E1.10958
G1 X28.370 Y166.057 E0.01677
G1 X53.893 Y191.580 E1.13329
G1 X54.427 Y191.580 E0.01677
G1 X28.370 Y165.523 E1.15701
G1 X28.370 Y164.989 E0.01677
G1 X54.961 Y191.580 E1.18072
G1 X55.495 Y191.580 E0.01677
G1 X28.370 Y164.455 E1.20443
G1 X28.370 Y163.921 E0.01677
G1 X56.029 Y191.580 E1.22814
G1 X56.563 Y191.580 E0.01677
G1 X28.370 Y163.387 E1.25185
G1 X28.370 Y162.853 E0.01677
G1 X57.097 Y191.580 E1.27556
G1 X57.631 Y191.580 E0.01677
G1 X28.370 Y162.319 E1.29927
G1 X28.370 Y161.785 E0.01677
G1 X58.165 Y191.580 E1.32299
G1 X58.699 Y191.580 E0.01677
G1 X28.370 Y161.251 E1.34670
G1 X28.370 Y160.717 E0.01677
G1 X59.233 Y191.580 E1.37041
G1 X59.767 Y191.580 E0.01677
G1 X28.370 Y160.183 E1.39412
G1 X28.370 Y159.649 E0.01677
G1 X60.301 Y191.580 E1.41783
G1 X60.835 Y191.580 E0.01677
G1 X28.370 Y159.115 E1.44154
G1 X28.370 Y158.581 E0.01677
G1 X61.369 Y191.580 E1.46526
M73 Q0 S464
M73 P0 R430
G1 X61.903 Y191.580 E0.01677
G1 X28.370 Y158.047 E1.48897
G1 X28.370 Y157.513 E0.01677
G1 X62.437 Y191.580 E1.51268
G1 X62.971 Y191.580 E0.01677
G1 X28.370 Y156.979 E1.53639
G1 X28.370 Y156.445 E0.01677
G1 X63.505 Y191.580 E1.56010
G1 X64.039 Y191.580 E0.01677
G1 X28.370 Y155.911 E1.58381
G1 X28.370 Y155.377 E0.01677
G1 X64.573 Y191.580 E1.60752
G1 X65.107 Y191.580 E0.01677
G1 X28.370 Y154.843 E1.63124
G1 X28.370 Y154.309 E0.01677
G1 X65.641 Y191.580 E1.65495
G1 X66.175 Y191.580 E0.01677
G1 X28.370 Y153.775 E1.67866
G1 X28.370 Y153.241 E0.01677
G1 X66.709 Y191.580 E1.70237
G1 X67.243 Y191.580 E0.01677
G1 X28.370 Y152.707 E1.72608
G1 X28.370 Y152.173 E0.01677
G1 X67.777 Y191.580 E1.74979
G1 X68.311 Y191.580 E0.01677
G1 X28.370 Y151.639 E1.77350
G1 X28.370 Y151.105 E0.01677
G1 X68.845 Y191.580 E1.79722
G1 X69.379 Y191.580 E0.01677
G1 X28.370 Y150.571 E1.82093
G1 X28.370 Y150.037 E0.01677
G1 X69.913 Y191.580 E1.84464
G1 X70.447 Y191.580 E0.01677
G1 X28.370 Y149.503 E1.86835
G1 X28.370 Y148.969 E0.01677
G1 X70.981 Y191.580 E1.89206
G1 X71.515 Y191.580 E0.01677
G1 X28.370 Y148.435 E1.91577
G1 X28.370 Y147.901 E0.01677
G1 X72.049 Y191.580 E1.93948
G1 X72.583 Y191.580 E0.01677
G1 X28.370 Y147.367 E1.96320
G1 X28.370 Y146.833 E0.01677
G1 X73.117 Y191.580 E1.98691
M73 Q0 S463
M73 P0 R429
G1 X73.651 Y191.580 E0.01677
G1 X28.370 Y146.299 E2.01062
G1 X28.370 Y145.765 E0.01677
G1 X74.185 Y191.580 E2.03433
G1 X74.719 Y191.580 E0.01677
G1 X28.370 Y145.231 E2.05804
G1 X28.370 Y144.697 E0.01677
G1 X75.253 Y191.580 E2.08175
G1 X75.787 Y191.580 E0.01677
G1 X28.370 Y144.163 E2.10546
G1 X28.370 Y143.629 E0.01677
G1 X76.321 Y191.580 E2.12918
G1 X76.855 Y191.580 E0.01677
G1 X28.370 Y143.095 E2.15289
G1 X28.370 Y142.561 E0.01677
G1 X77.389 Y191.580 E2.17660
G1 X77.923 Y191.580 E0.01677
G1 X28.370 Y142.027 E2.20031
G1 X28.370 Y141.493 E0.01677
G1 X78.457 Y191.580 E2.22402
G1 X78.991 Y191.580 E0.01677
G1 X28.370 Y140.959 E2.24773
G1 X28.370 Y140.425 E0.01677
G1 X79.525 Y191.580 E2.27144
G1 X80.059 Y191.580 E0.01677
G1 X28.370 Y139.891 E2.29516
G1 X28.370 Y139.357 E0.01677
G1 X80.593 Y191.580 E2.31887
G1 X81.127 Y191.580 E0.01677
G1 X28.370 Y138.823 E2.34258
G1 X28.370 Y138.289 E0.01677
G1 X81.661 Y191.580 E2.36629
G1 X82.195 Y191.580 E0.01677
G1 X28.370 Y137.755 E2.39000
M73 Q1 S462
M73 P1 R428
G1 X28.370 Y137.221 E0.01677
G1 X82.729 Y191.580 E2.41371
G1 X83.263 Y191.580 E0.01677
G1 X28.370 Y136.687 E2.43742
G1 X28.370 Y136.153 E0.01677
G1 X83.797 Y191.580 E2.46114
G1 X84.331 Y191.580 E0.01677
G1 X28.370 Y135.619 E2.48485
G1 X28.370 Y135.085 E0.01677
G1 X84.865 Y191.580 E2.50856
G1 X85.399 Y191.580 E0.01677
G1 X28.370 Y134.551 E2.53227
G1 X28.370 Y134.017 E0.01677
G1 X85.933 Y191.580 E2.55598
G1 X86.467 Y191.580 E0.01677
G1 X28.370 Y133.483 E2.57969
G1 X28.370 Y132.949 E0.01677
G1 X87.001 Y191.580 E2.60340
G1 X87.535 Y191.580 E0.01677
G1 X28.370 Y132.415 E2.62712
G1 X28.370 Y131.881 E0.01677
G1 X88.069 Y191.580 E2.65083
G1 X88.603 Y191.580 E0.01677
G1 X28.370 Y131.347 E2.67454
G1 X28.370 Y130.813 E0.01677
G1 X89.137 Y191.580 E2.69825
G1 X89.671 Y191.580 E0.01677
G1 X28.370 Y130.279 E2.72196
G1 X28.370 Y129.745 E0.01677
G1 X90.205 Y191.580 E2.74567
M73 Q1 S461
M73 P1 R427
G1 X90.739 Y191.580 E0.01677
G1 X28.370 Y129.211 E2.76938
G1 X28.370 Y128.677 E0.01677
G1 X91.273 Y191.580 E2.79310
G1 X91.807 Y191.580 E0.01677
G1 X28.370 Y128.143 E2.81681
G1 X28.370 Y127.609 E0.01677
G1 X92.341 Y191.580 E2.84052
G1 X92.875 Y191.580 E0.01677
G1 X28.370 Y127.075 E2.86423
G1 X28.370 Y126.541 E0.01677
G1 X93.409 Y191.580 E2.88794
G1 X93.943 Y191.580 E0.01677
G1 X28.370 Y126.007 E2.91165
G1 X28.370 Y125.473 E0.01677
G1 X94.477 Y191.580 E2.93536
G1 X95.011 Y191.580 E0.01677
G1 X28.370 Y124.939 E2.95908
G1 X28.370 Y124.405 E0.01677
G1 X95.545 Y191.580 E2.98279
G1 X96.079 Y191.580 E0.01677
G1 X28.370 Y123.871 E3.00650
G1 X28.370 Y123.337 E0.01677
G1 X96.613 Y191.580 E3.03021
G1 X97.147 Y191.580 E0.01677
G1 X28.370 Y122.803 E3.05392
M73 Q1 S460
M73 P1 R426
G1 X28.370 Y122.269 E0.01677
G1 X97.681 Y191.580 E3.07763
G1 X98.215 Y191.580 E0.01677
G1 X28.370 Y121.735 E3.10134
G1 X28.370 Y121.201 E0.01677
G1 X98.749 Y191.580 E3.12506
G1 X99.283 Y191.580 E0.01677
G1 X28.370 Y120.667 E3.14877
G1 X28.370 Y120.133 E0.01677
G1 X99.817 Y191.580 E3.17248
G1 X100.351 Y191.580 E0.01677
G1 X28.370 Y119.599 E3.19619
G1 X28.370 Y119.065 E0.01677
G1 X100.885 Y191.580 E3.21990
G1 X101.419 Y191.580 E0.01677
G1 X28.370 Y118.531 E3.24361
G1 X28.370 Y117.996 E0.01677
G1 X101.954 Y191.580 E3.26732
G1 X102.488 Y191.580 E0.01677
G1 X28.370 Y117.462 E3.29104
G1 X28.370 Y116.928 E0.01677
G1 X103.022 Y191.580 E3.31475
G1 X103.556 Y191.580 E0.01677
G1 X28.370 Y116.394 E3.33846
M73 Q1 S458
M73 P1 R425
G1 X28.370 Y115.860 E0.01677
G1 X104.090 Y191.580 E3.36217
G1 X104.624 Y191.580 E0.01677
G1 X28.370 Y115.326 E3.38588
G1 X28.370 Y114.792 E0.01677
G1 X105.158 Y191.580 E3.40959
G1 X105.692 Y191.580 E0.01677
G1 X28.370 Y114.258 E3.43330
G1 X28.370 Y113.724 E0.01677
G1 X106.226 Y191.580 E3.45702
G1 X106.760 Y191.580 E0.01677
G1 X28.370 Y113.190 E3.48073
G1 X28.370 Y112.656 E0.01677
G1 X107.294 Y191.580 E3.50444
G1 X107.828 Y191.580 E0.01677
G1 X28.370 Y112.122 E3.52815
G1 X28.370 Y111.588 E0.01677
G1 X108.362 Y191.580 E3.55186
G1 X108.896 Y191.580 E0.01677
G1 X28.370 Y111.054 E3.57557
G1 X28.370 Y110.520 E0.01677
G1 X109.430 Y191.580 E3.59929
M73 Q2 S457
M73 P2 R424
G1 X109.964 Y191.580 E0.01677
G1 X28.370 Y109.986 E3.62300
G1 X28.370 Y109.452 E0.01677
G1 X110.498 Y191.580 E3.64671
G1 X111.032 Y191.580 E0.01677
G1 X28.370 Y108.918 E3.67042
G1 X28.370 Y108.384 E0.01677
G1 X111.566 Y191.580 E3.69413
G1 X112.100 Y191.580 E0.01677
G1 X28.370 Y107.850 E3.71784
G1 X28.370 Y107.316 E0.01677
G1 X112.634 Y191.580 E3.74155
G1 X113.168 Y191.580 E0.01677
G1 X28.370 Y106.782 E3.76527
G1 X28.370 Y106.248 E0.01677
G1 X113.702 Y191.580 E3.78898
G1 X114.236 Y191.580 E0.01677
G1 X28.370 Y105.714 E3.81269
G1 X28.370 Y105.180 E0.01677
G1 X114.770 Y191.580 E3.83640
G1 X115.304 Y191.580 E0.01677
G1 X28.370 Y104.646 E3.86011
M73 Q2 S456
M73 P2 R423
G1 X28.370 Y104.112 E0.01677
G1 X115.838 Y191.580 E3.88382
G1 X116.372 Y191.580 E0.01677
G1 X28.370 Y103.578 E3.90753
G1 X28.370 Y103.044 E0.01677
G1 X116.906 Y191.580 E3.93125
G1 X117.440 Y191.580 E0.01677
G1 X28.370 Y102.510 E3.95496
G1 X28.370 Y101.976 E0.01677
G1 X117.974 Y191.580 E3.97867
G1 X118.508 Y191.580 E0.01677
G1 X28.370 Y101.442 E4.00238
G1 X28.370 Y100.908 E0.01677
G1 X119.042 Y191.580 E4.02609
G1 X119.576 Y191.580 E0.01677
G1 X28.370 Y100.374 E4.04980
G1 X28.370 Y99.840 E0.01677
G1 X120.110 Y191.580 E4.07351
G1 X120.644 Y191.580 E0.01677
G1 X28.370 Y99.306 E4.09723
M73 Q2 S455
M73 P2 R422
G1 X28.370 Y98.772 E0.01677
G1 X121.178 Y191.580 E4.12094
G1 X121.712 Y191.580 E0.01677
G1 X28.370 Y98.238 E4.14465
G1 X28.370 Y97.704 E0.01677
G1 X122.246 Y191.580 E4.16836
G1 X122.780 Y191.580 E0.01677
G1 X28.370 Y97.170 E4.19207
G1 X28.370 Y96.636 E0.01677
G1 X123.314 Y191.580 E4.21578
G1 X123.848 Y191.580 E0.01677
G1 X28.370 Y96.102 E4.23949
G1 X28.370 Y95.568 E0.01677
G1 X124.382 Y191.580 E4.26321
G1 X124.916 Y191.580 E0.01677
G1 X28.370 Y95.034 E4.28692
G1 X28.370 Y94.500 E0.01677
G1 X125.450 Y191.580 E4.31063
M73 Q2 S454
M73 P2 R421
G1 X125.984 Y191.580 E0.01677
G1 X28.370 Y93.966 E4.33434
G1 X28.370 Y93.432 E0.01677
G1 X126.518 Y191.580 E4.35805
G1 X127.052 Y191.580 E0.01677
G1 X28.370 Y92.898 E4.38176
G1 X28.370 Y92.364 E0.01677
G1 X127.586 Y191.580 E4.40547
G1 X128.120 Y191.580 E0.01677
G1 X28.370 Y91.830 E4.42919
G1 X28.370 Y91.296 E0.01677
G1 X128.654 Y191.580 E4.45290
G1 X129.188 Y191.580 E0.01677
G1 X28.370 Y90.762 E4.47661
G1 X28.370 Y90.228 E0.01677
G1 X129.722 Y191.580 E4.50032
G1 X130.256 Y191.580 E0.01677
G1 X28.370 Y89.694 E4.52403
M73 Q2 S453
M73 P3 R420
G1 X28.370 Y89.160 E0.01677
G1 X130.790 Y191.580 E4.54774
G1 X131.324 Y191.580 E0.01677
G1 X28.370 Y88.626 E4.57145
G1 X28.370 Y88.092 E0.01677
G1 X131.858 Y191.580 E4.59517
G1 X132.392 Y191.580 E0.01677
G1 X28.370 Y87.558 E4.61888
G1 X28.370 Y87.024 E0.01677
G1 X132.926 Y191.580 E4.64259
G1 X133.460 Y191.580 E0.01677
G1 X28.370 Y86.490 E4.66630
G1 X28.370 Y85.956 E0.01677
G1 X133.994 Y191.580 E4.69001
G1 X134.528 Y191.580 E0.01677
G1 X28.370 Y85.422 E4.71372
G1 X28.370 Y84.888 E0.01677
G1 X135.062 Y191.580 E4.73743
M73 Q3 S452
M73 P3 R419
G1 X135.596 Y191.580 E0.01677
G1 X28.370 Y84.354 E4.76115
G1 X28.370 Y83.820 E0.01677
G1 X136.130 Y191.580 E4.78486
G1 X136.664 Y191.580 E0.01677
G1 X28.370 Y83.286 E4.80857
G1 X28.370 Y82.752 E0.01677
G1 X137.198 Y191.580 E4.83228
G1 X137.732 Y191.580 E0.01677
G1 X28.370 Y82.218 E4.85599
G1 X28.370 Y81.684 E0.01677
G1 X138.266 Y191.580 E4.87970
G1 X138.800 Y191.580 E0.01677
G1 X28.370 Y81.150 E4.90341
G1 X28.370 Y80.616 E0.01677
G1 X139.334 Y191.580 E4.92713
M73 Q3 S451
M73 P3 R418
G1 X139.868 Y191.580 E0.01677
G1 X28.370 Y80.082 E4.95084
G1 X28.370 Y79.548 E0.01677
